(G-CODE GENERATED BY FLATCAM v8.994 - www.flatcam.org - Version Date: 2020/11/7)

(Name: Switch_PCB_ESP01-PTH.drl_cnc)
(Type: G-code from Geometry)
(Units: MM)

(Created on Thursday, 01 February 2024 at 09:43)

(This preprocessor is the default preprocessor used by FlatCAM.)
(It is made to work with MACH3 compatible motion controllers.)


(TOOLS DIAMETER: )
(Tool: 1 -> Dia: 0.8)
(Tool: 2 -> Dia: 0.8)
(Tool: 3 -> Dia: 0.8)
(Tool: 4 -> Dia: 0.8)
(Tool: 5 -> Dia: 1.0)

(FEEDRATE Z: )
(Tool: 1 -> Feedrate: 30.0)
(Tool: 2 -> Feedrate: 30.0)
(Tool: 3 -> Feedrate: 30.0)
(Tool: 4 -> Feedrate: 30.0)
(Tool: 5 -> Feedrate: 30.0)

(FEEDRATE RAPIDS: )
(Tool: 1 -> Feedrate Rapids: 1500)
(Tool: 2 -> Feedrate Rapids: 1500)
(Tool: 3 -> Feedrate Rapids: 1500)
(Tool: 4 -> Feedrate Rapids: 1500)
(Tool: 5 -> Feedrate Rapids: 1500)

(Z_CUT: )
(Tool: 1 -> Z_Cut: -1.9)
(Tool: 2 -> Z_Cut: -1.9)
(Tool: 3 -> Z_Cut: -1.9)
(Tool: 4 -> Z_Cut: -1.9)
(Tool: 5 -> Z_Cut: -1.9)

(Tools Offset: )
(Tool: 4 -> Offset Z: 0.0)

(Z_MOVE: )
(Tool: 1 -> Z_Move: 2.0)
(Tool: 2 -> Z_Move: 2.0)
(Tool: 3 -> Z_Move: 2.0)
(Tool: 4 -> Z_Move: 2.0)
(Tool: 5 -> Z_Move: 2.0)

(Z Toolchange: 5.0 mm)
(X,Y Toolchange: 0.0000, 0.0000 mm)
(Z Start: None mm)
(Z End: 0.5 mm)
(X,Y End: None mm)
(Steps per circle: 64)
(Preprocessor Excellon: default)

(X range:    2.1420 ...   17.9420  mm)
(Y range:    2.6950 ...   51.7280  mm)

(Spindle Speed: 10000 RPM)
G21
G90
G94

G01 F30.00

M5
G00 Z5.0000
T1
G00 X0.0000 Y0.0000                
M6
(MSG, Change to Tool Dia = 0.8000 ||| Total drills for tool T1 = 18)
M0
G00 Z5.0000

G01 F30.00
M03 S10000
G00 X2.6660 Y42.0840
G01 Z-1.9000
G01 Z0
G00 Z2.0000
G00 X2.6660 Y42.0840
G01 Z-1.9000
G01 Z0
G00 Z2.0000
G00 X5.4600 Y25.9550
G01 Z-1.9000
G01 Z0
G00 Z2.0000
G00 X5.4600 Y25.9550
G01 Z-1.9000
G01 Z0
G00 Z2.0000
G00 X5.4600 Y23.4150
G01 Z-1.9000
G01 Z0
G00 Z2.0000
G00 X5.4600 Y23.4150
G01 Z-1.9000
G01 Z0
G00 Z2.0000
G00 X5.4600 Y20.8750
G01 Z-1.9000
G01 Z0
G00 Z2.0000
G00 X5.4600 Y20.8750
G01 Z-1.9000
G01 Z0
G00 Z2.0000
G00 X6.4760 Y13.5090
G01 Z-1.9000
G01 Z0
G00 Z2.0000
G00 X6.4760 Y13.5090
G01 Z-1.9000
G01 Z0
G00 Z2.0000
G00 X6.4760 Y10.9690
G01 Z-1.9000
G01 Z0
G00 Z2.0000
G00 X6.4760 Y10.9690
G01 Z-1.9000
G01 Z0
G00 Z2.0000
G00 X2.7930 Y8.2120
G01 Z-1.9000
G01 Z0
G00 Z2.0000
G00 X2.7930 Y8.2120
G01 Z-1.9000
G01 Z0
G00 Z2.0000
G00 X2.7930 Y5.6730
G01 Z-1.9000
G01 Z0
G00 Z2.0000
G00 X2.7930 Y5.6730
G01 Z-1.9000
G01 Z0
G00 Z2.0000
G00 X6.7300 Y3.0950
G01 Z-1.9000
G01 Z0
G00 Z2.0000
G00 X6.7300 Y3.0950
G01 Z-1.9000
G01 Z0
G00 Z2.0000
G00 X6.7300 Y5.6350
G01 Z-1.9000
G01 Z0
G00 Z2.0000
G00 X6.7300 Y5.6350
G01 Z-1.9000
G01 Z0
G00 Z2.0000
G00 X9.0160 Y10.9690
G01 Z-1.9000
G01 Z0
G00 Z2.0000
G00 X9.0160 Y10.9690
G01 Z-1.9000
G01 Z0
G00 Z2.0000
G00 X11.5560 Y10.9690
G01 Z-1.9000
G01 Z0
G00 Z2.0000
G00 X11.5560 Y10.9690
G01 Z-1.9000
G01 Z0
G00 Z2.0000
G00 X14.0960 Y10.9690
G01 Z-1.9000
G01 Z0
G00 Z2.0000
G00 X14.0960 Y10.9690
G01 Z-1.9000
G01 Z0
G00 Z2.0000
G00 X14.0960 Y13.5090
G01 Z-1.9000
G01 Z0
G00 Z2.0000
G00 X14.0960 Y13.5090
G01 Z-1.9000
G01 Z0
G00 Z2.0000
G00 X11.5560 Y13.5090
G01 Z-1.9000
G01 Z0
G00 Z2.0000
G00 X11.5560 Y13.5090
G01 Z-1.9000
G01 Z0
G00 Z2.0000
G00 X9.0160 Y13.5090
G01 Z-1.9000
G01 Z0
G00 Z2.0000
G00 X9.0160 Y13.5090
G01 Z-1.9000
G01 Z0
G00 Z2.0000
G00 X9.0160 Y16.1760
G01 Z-1.9000
G01 Z0
G00 Z2.0000
G00 X9.0160 Y16.1760
G01 Z-1.9000
G01 Z0
G00 Z2.0000
G00 X11.5560 Y19.7320
G01 Z-1.9000
G01 Z0
G00 Z2.0000
G00 X11.5560 Y19.7320
G01 Z-1.9000
G01 Z0
G00 Z2.0000
G00 X11.5560 Y22.2720
G01 Z-1.9000
G01 Z0
G00 Z2.0000
G00 X11.5560 Y22.2720
G01 Z-1.9000
G01 Z0
G00 Z2.0000
G00 X11.5560 Y24.8120
G01 Z-1.9000
G01 Z0
G00 Z2.0000
G00 X11.5560 Y24.8120
G01 Z-1.9000
G01 Z0
G00 Z2.0000
M05
G00 Z0.50


