(G-CODE GENERATED BY FLATCAM v8.994 - www.flatcam.org - Version Date: 2020/11/7)

(Name: Switch_PCB_ESP01-PTH.drl_cnc)
(Type: G-code from Geometry)
(Units: MM)

(Created on Thursday, 01 February 2024 at 09:44)

(This preprocessor is the default preprocessor used by FlatCAM.)
(It is made to work with MACH3 compatible motion controllers.)


(TOOLS DIAMETER: )
(Tool: 1 -> Dia: 0.8)
(Tool: 2 -> Dia: 0.8)
(Tool: 3 -> Dia: 0.8)
(Tool: 4 -> Dia: 0.8)
(Tool: 5 -> Dia: 1.0)

(FEEDRATE Z: )
(Tool: 1 -> Feedrate: 300)
(Tool: 2 -> Feedrate: 300)
(Tool: 3 -> Feedrate: 300)
(Tool: 4 -> Feedrate: 300)
(Tool: 5 -> Feedrate: 30.0)

(FEEDRATE RAPIDS: )
(Tool: 1 -> Feedrate Rapids: 1500)
(Tool: 2 -> Feedrate Rapids: 1500)
(Tool: 3 -> Feedrate Rapids: 1500)
(Tool: 4 -> Feedrate Rapids: 1500)
(Tool: 5 -> Feedrate Rapids: 1500)

(Z_CUT: )
(Tool: 1 -> Z_Cut: -1.7)
(Tool: 2 -> Z_Cut: -1.7)
(Tool: 3 -> Z_Cut: -1.7)
(Tool: 4 -> Z_Cut: -1.7)
(Tool: 5 -> Z_Cut: -1.9)

(Tools Offset: )
(Tool: 5 -> Offset Z: 0.0)

(Z_MOVE: )
(Tool: 1 -> Z_Move: 2)
(Tool: 2 -> Z_Move: 2)
(Tool: 3 -> Z_Move: 2)
(Tool: 4 -> Z_Move: 2)
(Tool: 5 -> Z_Move: 2)

(Z Toolchange: 5.0 mm)
(X,Y Toolchange: 0.0000, 0.0000 mm)
(Z Start: None mm)
(Z End: 0.5 mm)
(X,Y End: None mm)
(Steps per circle: 64)
(Preprocessor Excellon: default)

(X range:    2.1420 ...   17.9420  mm)
(Y range:    2.6950 ...   51.7280  mm)

(Spindle Speed: 10000 RPM)
G21
G90
G94

G01 F30.00

M5
G00 Z5.0000
T5
G00 X0.0000 Y0.0000                
M6
(MSG, Change to Tool Dia = 1.0000 ||| Total drills for tool T5 = 9)
M0
G00 Z5.0000

G01 F30.00
M03 S10000
G00 X2.6420 Y51.2280
G01 Z-1.9000
G01 Z0
G00 Z2.0000
G00 X6.2420 Y51.2280
G01 Z-1.9000
G01 Z0
G00 Z2.0000
G00 X13.8420 Y51.2280
G01 Z-1.9000
G01 Z0
G00 Z2.0000
G00 X17.4420 Y51.2280
G01 Z-1.9000
G01 Z0
G00 Z2.0000
G00 X11.8320 Y41.5400
G01 Z-1.9000
G01 Z0
G00 Z2.0000
G00 X15.6200 Y3.9840
G01 Z-1.9000
G01 Z0
G00 Z2.0000
G00 X13.0800 Y3.9840
G01 Z-1.9000
G01 Z0
G00 Z2.0000
G00 X10.5400 Y3.9840
G01 Z-1.9000
G01 Z0
G00 Z2.0000
G00 X8.2320 Y41.5400
G01 Z-1.9000
G01 Z0
G00 Z2.0000
M05
G00 Z0.50


