(G-CODE GENERATED BY FLATCAM v8.994 - www.flatcam.org - Version Date: 2020/11/7)

(Name: Switch_PCB_ESP01-Edge_Cuts.gbr_cutout_cnc)
(Type: G-code from Geometry)
(Units: MM)

(Created on Thursday, 01 February 2024 at 09:43)

(This preprocessor is the default preprocessor used by FlatCAM.)
(It is made to work with MACH3 compatible motion controllers.)

(TOOL DIAMETER: 2.4 mm)
(Feedrate_XY: 50.0 mm/min)
(Feedrate_Z: 20.0 mm/min)
(Feedrate rapids 1500.0 mm/min)

(Z_Cut: -1.8 mm)
(DepthPerCut: 0.6 mm <=>3 passes)
(Z_Move: 2.0 mm)
(Z Start: None mm)
(Z End: 5.0 mm)
(X,Y End: None mm)
(Steps per circle: 64)
(Preprocessor Geometry: default)

(X range:   -1.3000 ...   21.4000  mm)
(Y range:   -1.3000 ...   55.4000  mm)

(Spindle Speed: 10000.0 RPM)
G21
G90
G94

G01 F50.00

M5
G00 Z15.0000
G00 X0.0000 Y0.0000
T1
M6    
(MSG, Change to Tool Dia = 2.4000)
M0
G00 Z15.0000

M03 S10000.0
G01 F50.00
G00 X-1.3000 Y54.0500
G01 F20.00
G01 Z-0.6000
G01 F50.00
G01 X-1.2982 Y54.1187
G01 X-1.2857 Y54.2457
G01 X-1.2601 Y54.3757
G01 X-1.2219 Y54.5025
G01 X-1.1714 Y54.6250
G01 X-1.1091 Y54.7419
G01 X-1.0357 Y54.8522
G01 X-0.9519 Y54.9548
G01 X-0.8584 Y55.0486
G01 X-0.7561 Y55.1329
G01 X-0.6461 Y55.2067
G01 X-0.5294 Y55.2693
G01 X-0.4071 Y55.3202
G01 X-0.2804 Y55.3589
G01 X-0.1505 Y55.3850
G01 X-0.0187 Y55.3982
G01 X0.0500 Y55.4000
G01 X20.0500 Y55.4000
G01 X20.1138 Y55.3985
G01 X20.2505 Y55.3850
G01 X20.3804 Y55.3589
G01 X20.5025 Y55.3219
G01 X20.6294 Y55.2693
G01 X20.7462 Y55.2067
G01 X20.8522 Y55.1358
G01 X20.9584 Y55.0486
G01 X21.0486 Y54.9584
G01 X21.1329 Y54.8562
G01 X21.2092 Y54.7419
G01 X21.2693 Y54.6294
G01 X21.3202 Y54.5071
G01 X21.3589 Y54.3804
G01 X21.3850 Y54.2505
G01 X21.3982 Y54.1187
G01 X21.4000 Y54.0500
G01 X21.4000 Y0.0500
G01 X21.3982 Y-0.0187
G01 X21.3850 Y-0.1505
G01 X21.3589 Y-0.2804
G01 X21.3219 Y-0.4025
G01 X21.2693 Y-0.5294
G01 X21.2092 Y-0.6419
G01 X21.1358 Y-0.7522
G01 X21.0486 Y-0.8584
G01 X20.9584 Y-0.9486
G01 X20.8562 Y-1.0328
G01 X20.7419 Y-1.1091
G01 X20.6250 Y-1.1714
G01 X20.5071 Y-1.2202
G01 X20.3804 Y-1.2589
G01 X20.2505 Y-1.2850
G01 X20.1187 Y-1.2982
G01 X20.0500 Y-1.3000
G01 X0.0500 Y-1.3000
G01 X-0.0138 Y-1.2984
G01 X-0.1505 Y-1.2850
G01 X-0.2756 Y-1.2601
G01 X-0.4025 Y-1.2219
G01 X-0.5294 Y-1.1693
G01 X-0.6419 Y-1.1091
G01 X-0.7522 Y-1.0357
G01 X-0.8584 Y-0.9486
G01 X-0.9486 Y-0.8584
G01 X-1.0328 Y-0.7561
G01 X-1.1091 Y-0.6419
G01 X-1.1693 Y-0.5294
G01 X-1.2202 Y-0.4071
G01 X-1.2589 Y-0.2804
G01 X-1.2850 Y-0.1505
G01 X-1.2982 Y-0.0187
G01 X-1.3000 Y0.0500
G01 X-1.3000 Y54.0500
G00 X-1.3000 Y54.0500
G01 F20.00
G01 Z-1.2000
G01 F50.00
G01 X-1.3000 Y0.0500
G01 X-1.2982 Y-0.0187
G01 X-1.2850 Y-0.1505
G01 X-1.2589 Y-0.2804
G01 X-1.2202 Y-0.4071
G01 X-1.1693 Y-0.5294
G01 X-1.1091 Y-0.6419
G01 X-1.0328 Y-0.7561
G01 X-0.9486 Y-0.8584
G01 X-0.8584 Y-0.9486
G01 X-0.7522 Y-1.0357
G01 X-0.6419 Y-1.1091
G01 X-0.5294 Y-1.1693
G01 X-0.4025 Y-1.2219
G01 X-0.2756 Y-1.2601
G01 X-0.1505 Y-1.2850
G01 X-0.0138 Y-1.2984
G01 X0.0500 Y-1.3000
G01 X20.0500 Y-1.3000
G01 X20.1187 Y-1.2982
G01 X20.2505 Y-1.2850
G01 X20.3804 Y-1.2589
G01 X20.5071 Y-1.2202
G01 X20.6250 Y-1.1714
G01 X20.7419 Y-1.1091
G01 X20.8562 Y-1.0328
G01 X20.9584 Y-0.9486
G01 X21.0486 Y-0.8584
G01 X21.1358 Y-0.7522
G01 X21.2092 Y-0.6419
G01 X21.2693 Y-0.5294
G01 X21.3219 Y-0.4025
G01 X21.3589 Y-0.2804
G01 X21.3850 Y-0.1505
G01 X21.3982 Y-0.0187
G01 X21.4000 Y0.0500
G01 X21.4000 Y54.0500
G01 X21.3982 Y54.1187
G01 X21.3850 Y54.2505
G01 X21.3589 Y54.3804
G01 X21.3202 Y54.5071
G01 X21.2693 Y54.6294
G01 X21.2092 Y54.7419
G01 X21.1329 Y54.8562
G01 X21.0486 Y54.9584
G01 X20.9584 Y55.0486
G01 X20.8522 Y55.1358
G01 X20.7462 Y55.2067
G01 X20.6294 Y55.2693
G01 X20.5025 Y55.3219
G01 X20.3804 Y55.3589
G01 X20.2505 Y55.3850
G01 X20.1138 Y55.3985
G01 X20.0500 Y55.4000
G01 X0.0500 Y55.4000
G01 X-0.0187 Y55.3982
G01 X-0.1505 Y55.3850
G01 X-0.2804 Y55.3589
G01 X-0.4071 Y55.3202
G01 X-0.5294 Y55.2693
G01 X-0.6461 Y55.2067
G01 X-0.7561 Y55.1329
G01 X-0.8584 Y55.0486
G01 X-0.9519 Y54.9548
G01 X-1.0357 Y54.8522
G01 X-1.1091 Y54.7419
G01 X-1.1714 Y54.6250
G01 X-1.2219 Y54.5025
G01 X-1.2601 Y54.3757
G01 X-1.2857 Y54.2457
G01 X-1.2982 Y54.1187
G01 X-1.3000 Y54.0500
G00 X-1.3000 Y54.0500
G01 F20.00
G01 Z-1.8000
G01 F50.00
G01 X-1.2982 Y54.1187
G01 X-1.2857 Y54.2457
G01 X-1.2601 Y54.3757
G01 X-1.2219 Y54.5025
G01 X-1.1714 Y54.6250
G01 X-1.1091 Y54.7419
G01 X-1.0357 Y54.8522
G01 X-0.9519 Y54.9548
G01 X-0.8584 Y55.0486
G01 X-0.7561 Y55.1329
G01 X-0.6461 Y55.2067
G01 X-0.5294 Y55.2693
G01 X-0.4071 Y55.3202
G01 X-0.2804 Y55.3589
G01 X-0.1505 Y55.3850
G01 X-0.0187 Y55.3982
G01 X0.0500 Y55.4000
G01 X20.0500 Y55.4000
G01 X20.1138 Y55.3985
G01 X20.2505 Y55.3850
G01 X20.3804 Y55.3589
G01 X20.5025 Y55.3219
G01 X20.6294 Y55.2693
G01 X20.7462 Y55.2067
G01 X20.8522 Y55.1358
G01 X20.9584 Y55.0486
G01 X21.0486 Y54.9584
G01 X21.1329 Y54.8562
G01 X21.2092 Y54.7419
G01 X21.2693 Y54.6294
G01 X21.3202 Y54.5071
G01 X21.3589 Y54.3804
G01 X21.3850 Y54.2505
G01 X21.3982 Y54.1187
G01 X21.4000 Y54.0500
G01 X21.4000 Y0.0500
G01 X21.3982 Y-0.0187
G01 X21.3850 Y-0.1505
G01 X21.3589 Y-0.2804
G01 X21.3219 Y-0.4025
G01 X21.2693 Y-0.5294
G01 X21.2092 Y-0.6419
G01 X21.1358 Y-0.7522
G01 X21.0486 Y-0.8584
G01 X20.9584 Y-0.9486
G01 X20.8562 Y-1.0328
G01 X20.7419 Y-1.1091
G01 X20.6250 Y-1.1714
G01 X20.5071 Y-1.2202
G01 X20.3804 Y-1.2589
G01 X20.2505 Y-1.2850
G01 X20.1187 Y-1.2982
G01 X20.0500 Y-1.3000
G01 X0.0500 Y-1.3000
G01 X-0.0138 Y-1.2984
G01 X-0.1505 Y-1.2850
G01 X-0.2756 Y-1.2601
G01 X-0.4025 Y-1.2219
G01 X-0.5294 Y-1.1693
G01 X-0.6419 Y-1.1091
G01 X-0.7522 Y-1.0357
G01 X-0.8584 Y-0.9486
G01 X-0.9486 Y-0.8584
G01 X-1.0328 Y-0.7561
G01 X-1.1091 Y-0.6419
G01 X-1.1693 Y-0.5294
G01 X-1.2202 Y-0.4071
G01 X-1.2589 Y-0.2804
G01 X-1.2850 Y-0.1505
G01 X-1.2982 Y-0.0187
G01 X-1.3000 Y0.0500
G01 X-1.3000 Y54.0500
G00 Z2.0000
M05
G00 Z2.0000
G00 Z5.00


