(G-CODE GENERATED BY FLATCAM v8.994 - www.flatcam.org - Version Date: 2020/11/7)

(Name: Switch_PCB_ESP01-F_Cu.gbr_iso_combined_cnc)
(Type: G-code from Geometry)
(Units: MM)

(Created on Thursday, 01 February 2024 at 09:42)

(This preprocessor is the default preprocessor used by FlatCAM.)
(It is made to work with MACH3 compatible motion controllers.)

(TOOL DIAMETER: 0.27 mm)
(Feedrate_XY: 80.0 mm/min)
(Feedrate_Z: 60.0 mm/min)
(Feedrate rapids 1500.0 mm/min)

(Z_Cut: -0.3172 mm)
(Z_Move: 2.0 mm)
(Z Start: None mm)
(Z End: 5.0 mm)
(X,Y End: None mm)
(Steps per circle: 64)
(Preprocessor Geometry: default)

(X range:   -0.1995 ...   20.2995  mm)
(Y range:   -0.1995 ...   54.2995  mm)

(Spindle Speed: 10000.0 RPM)
G21
G90
G94

G01 F80.00

M5
G00 Z15.0000
G00 X0.0000 Y0.0000
T1
M6    
(MSG, Change to Tool Dia = 0.2700)
M0
G00 Z15.0000

M03 S10000.0
G01 F80.00
G00 X-0.0516 Y0.0248
G01 F60.00
G01 Z-0.3172
G01 F80.00
G01 X-0.0059 Y-0.0280
G01 X0.0017 Y-0.0362
G01 X0.0072 Y-0.0413
G01 X0.0157 Y-0.0485
G01 X0.0248 Y-0.0550
G01 X0.0344 Y-0.0608
G01 X0.0477 Y-0.0674
G01 X0.0617 Y-0.0726
G01 X0.1357 Y-0.0944
G01 X0.1426 Y-0.0960
G01 X0.1532 Y-0.0979
G01 X0.1638 Y-0.0991
G01 X0.1745 Y-0.0995
G01 X19.9255 Y-0.0995
G01 X19.9398 Y-0.0988
G01 X19.9539 Y-0.0968
G01 X20.0162 Y-0.0831
G01 X20.0269 Y-0.0797
G01 X20.0374 Y-0.0756
G01 X20.0475 Y-0.0707
G01 X20.0572 Y-0.0650
G01 X20.0665 Y-0.0587
G01 X20.0753 Y-0.0516
G01 X20.1281 Y-0.0059
G01 X20.1388 Y0.0044
G01 X20.1485 Y0.0157
G01 X20.1570 Y0.0280
G01 X20.1643 Y0.0410
G01 X20.1702 Y0.0546
G01 X20.1738 Y0.0652
G01 X20.1953 Y0.1392
G01 X20.1968 Y0.1461
G01 X20.1985 Y0.1567
G01 X20.1991 Y0.1638
G01 X20.1995 Y0.1745
G01 X20.1995 Y53.9255
G01 X20.1988 Y53.9398
G01 X20.1968 Y53.9539
G01 X20.1831 Y54.0162
G01 X20.1798 Y54.0269
G01 X20.1756 Y54.0374
G01 X20.1707 Y54.0475
G01 X20.1651 Y54.0572
G01 X20.1587 Y54.0665
G01 X20.1517 Y54.0753
G01 X20.1059 Y54.1281
G01 X20.0956 Y54.1388
G01 X20.0843 Y54.1485
G01 X20.0721 Y54.1570
G01 X20.0591 Y54.1643
G01 X20.0454 Y54.1702
G01 X20.0348 Y54.1738
G01 X19.9609 Y54.1953
G01 X19.9504 Y54.1974
G01 X19.9433 Y54.1985
G01 X19.9327 Y54.1994
G01 X19.9255 Y54.1995
G01 X10.7930 Y54.1995
G01 X10.7823 Y54.1988
G01 X10.7681 Y54.1968
G01 X10.7095 Y54.1840
G01 X10.7022 Y54.1821
G01 X10.6916 Y54.1785
G01 X10.6779 Y54.1725
G01 X10.6680 Y54.1670
G01 X10.6617 Y54.1630
G01 X10.6496 Y54.1541
G01 X10.5940 Y54.1059
G01 X10.5858 Y54.0983
G01 X10.5759 Y54.0872
G01 X10.5670 Y54.0752
G01 X10.5595 Y54.0624
G01 X10.5546 Y54.0523
G01 X10.5518 Y54.0454
G01 X10.5483 Y54.0348
G01 X10.5276 Y53.9643
G01 X10.5260 Y53.9574
G01 X10.5241 Y53.9469
G01 X10.5227 Y53.9327
G01 X10.5225 Y45.3885
G01 X10.5232 Y45.3743
G01 X10.5252 Y45.3601
G01 X10.5372 Y45.3051
G01 X10.5400 Y45.2942
G01 X10.5436 Y45.2836
G01 X10.5496 Y45.2699
G01 X10.5570 Y45.2568
G01 X10.5656 Y45.2446
G01 X10.6161 Y45.1860
G01 X10.6237 Y45.1778
G01 X10.6320 Y45.1702
G01 X10.6407 Y45.1633
G01 X10.6468 Y45.1590
G01 X10.6564 Y45.1532
G01 X10.6697 Y45.1466
G01 X10.6837 Y45.1414
G01 X10.7543 Y45.1206
G01 X10.7646 Y45.1180
G01 X10.7716 Y45.1166
G01 X10.7823 Y45.1152
G01 X10.7930 Y45.1146
G01 X17.3903 Y45.1145
G01 X17.5137 Y45.0968
G01 X17.5602 Y45.0831
G01 X17.6638 Y45.0358
G01 X17.7498 Y44.9613
G01 X17.7815 Y44.9247
G01 X17.8445 Y44.8266
G01 X17.8707 Y44.7480
G01 X17.8785 Y44.7122
G01 X17.8885 Y44.6190
G01 X17.8885 Y24.2005
G01 X17.8893 Y24.1851
G01 X17.8917 Y24.1698
G01 X17.9066 Y24.1069
G01 X17.9099 Y24.0958
G01 X17.9142 Y24.0850
G01 X18.0987 Y23.7156
G01 X18.1332 Y23.6203
G01 X18.1423 Y23.5817
G01 X18.1486 Y23.5272
G01 X18.1486 Y3.5140
G01 X18.1363 Y3.4280
G01 X18.1226 Y3.3815
G01 X18.0725 Y3.2718
G01 X18.0546 Y3.2469
G01 X17.6669 Y2.8593
G01 X17.5973 Y2.8072
G01 X17.5549 Y2.7840
G01 X17.4418 Y2.7418
G01 X17.4061 Y2.7360
G01 X17.3877 Y2.7340
G01 X17.3408 Y2.7315
G01 X17.2548 Y2.7315
G01 X17.1313 Y2.7493
G01 X17.0964 Y2.7595
G01 X17.0890 Y2.7612
G01 X17.0777 Y2.7632
G01 X17.0301 Y2.7684
G01 X17.0191 Y2.7691
G01 X17.0118 Y2.7692
G01 X17.0008 Y2.7686
G01 X16.9863 Y2.7666
G01 X16.9756 Y2.7642
G01 X16.9616 Y2.7598
G01 X16.8929 Y2.7341
G01 X16.8799 Y2.7281
G01 X16.8705 Y2.7229
G01 X16.8616 Y2.7170
G01 X16.7936 Y2.6661
G01 X16.6945 Y2.6292
G01 X16.6606 Y2.6255
G01 X14.5794 Y2.6255
G01 X14.5456 Y2.6292
G01 X14.4464 Y2.6661
G01 X14.3639 Y2.7279
G01 X14.2956 Y2.8192
G01 X14.2871 Y2.8330
G01 X14.2804 Y2.8418
G01 X14.2756 Y2.8474
G01 X14.2680 Y2.8554
G01 X14.2149 Y2.9064
G01 X14.2064 Y2.9136
G01 X14.2004 Y2.9181
G01 X14.1879 Y2.9261
G01 X14.1780 Y2.9313
G01 X14.1677 Y2.9357
G01 X14.1572 Y2.9393
G01 X14.1500 Y2.9413
G01 X14.0742 Y2.9565
G01 X14.0594 Y2.9587
G01 X14.0483 Y2.9593
G01 X14.0371 Y2.9592
G01 X14.0260 Y2.9582
G01 X14.0186 Y2.9570
G01 X14.0113 Y2.9555
G01 X14.0005 Y2.9526
G01 X13.9804 Y2.9451
G01 X13.9804 Y3.2696
G01 X14.0362 Y3.3451
G01 X14.0942 Y3.4419
G01 X14.1425 Y3.5440
G01 X14.1782 Y3.6432
G01 X14.1825 Y3.6573
G01 X14.2063 Y3.7525
G01 X14.2092 Y3.7669
G01 X14.2245 Y3.8713
G01 X14.2298 Y3.9767
G01 X14.2300 Y3.9877
G01 X14.2245 Y4.0967
G01 X14.2092 Y4.2011
G01 X14.2063 Y4.2156
G01 X14.1825 Y4.3108
G01 X14.1782 Y4.3248
G01 X14.1425 Y4.4241
G01 X14.0942 Y4.5261
G01 X14.0362 Y4.6229
G01 X13.9804 Y4.6985
G01 X13.9804 Y5.3982
G01 X13.9764 Y5.4828
G01 X13.9752 Y5.4938
G01 X13.9644 Y5.5666
G01 X13.9615 Y5.5811
G01 X13.9416 Y5.6596
G01 X13.9119 Y5.7428
G01 X13.8741 Y5.8227
G01 X13.8288 Y5.8982
G01 X13.7760 Y5.9694
G01 X13.7193 Y6.0323
G01 X12.4773 Y7.2743
G01 X12.4144 Y7.3310
G01 X12.3495 Y7.3794
G01 X12.3372 Y7.3876
G01 X12.2677 Y7.4291
G01 X12.1945 Y7.4639
G01 X12.1809 Y7.4695
G01 X12.1046 Y7.4966
G01 X12.0225 Y7.5173
G01 X12.0116 Y7.5194
G01 X11.9315 Y7.5311
G01 X11.8432 Y7.5354
G01 X7.7300 Y7.5354
G01 X7.6418 Y7.5311
G01 X7.5616 Y7.5194
G01 X7.5472 Y7.5165
G01 X7.4687 Y7.4966
G01 X7.3923 Y7.4695
G01 X7.3787 Y7.4639
G01 X7.3056 Y7.4291
G01 X7.2360 Y7.3876
G01 X7.2238 Y7.3794
G01 X7.1617 Y7.3333
G01 X7.1533 Y7.3262
G01 X7.0934 Y7.2717
G01 X6.5986 Y6.7769
G01 X6.5057 Y6.7629
G01 X6.4033 Y6.7375
G01 X6.3892 Y6.7332
G01 X6.2934 Y6.6989
G01 X6.2832 Y6.6945
G01 X6.1945 Y6.6525
G01 X6.1847 Y6.6475
G01 X6.0942 Y6.5932
G01 X6.0851 Y6.5870
G01 X6.0661 Y6.5729
G01 X3.5075 Y6.5729
G01 X3.4319 Y6.6287
G01 X3.3415 Y6.6831
G01 X3.3286 Y6.6900
G01 X3.2398 Y6.7320
G01 X3.2262 Y6.7376
G01 X3.1269 Y6.7730
G01 X3.0246 Y6.7988
G01 X3.0101 Y6.8017
G01 X2.9057 Y6.8170
G01 X2.7930 Y6.8225
G01 X2.6803 Y6.8170
G01 X2.5723 Y6.8011
G01 X2.5615 Y6.7988
G01 X2.4592 Y6.7730
G01 X2.3598 Y6.7376
G01 X2.3462 Y6.7320
G01 X2.2575 Y6.6900
G01 X2.2445 Y6.6831
G01 X2.1541 Y6.6287
G01 X2.0635 Y6.5615
G01 X1.9799 Y6.4857
G01 X1.9089 Y6.4077
G01 X1.8995 Y6.3963
G01 X1.8411 Y6.3174
G01 X1.8329 Y6.3052
G01 X1.7788 Y6.2146
G01 X1.7306 Y6.1126
G01 X1.6925 Y6.0064
G01 X1.6667 Y5.9041
G01 X1.6639 Y5.8896
G01 X1.6495 Y5.7926
G01 X1.6480 Y5.7779
G01 X1.6430 Y5.6725
G01 X1.6486 Y5.5598
G01 X1.6651 Y5.4482
G01 X1.6906 Y5.3458
G01 X1.6946 Y5.3323
G01 X1.7279 Y5.2393
G01 X1.7335 Y5.2257
G01 X1.7788 Y5.1304
G01 X1.8368 Y5.0336
G01 X1.9041 Y4.9430
G01 X1.9748 Y4.8647
G01 X1.9852 Y4.8543
G01 X2.0579 Y4.7884
G01 X2.0693 Y4.7790
G01 X2.1541 Y4.7163
G01 X2.2509 Y4.6583
G01 X2.3530 Y4.6100
G01 X2.4522 Y4.5744
G01 X2.4663 Y4.5701
G01 X2.5687 Y4.5446
G01 X2.6730 Y4.5290
G01 X2.6876 Y4.5275
G01 X2.7930 Y4.5225
G01 X2.8984 Y4.5275
G01 X2.9131 Y4.5290
G01 X3.0174 Y4.5446
G01 X3.1266 Y4.5720
G01 X3.2262 Y4.6074
G01 X3.2398 Y4.6130
G01 X3.3286 Y4.6550
G01 X3.3415 Y4.6619
G01 X3.4319 Y4.7163
G01 X3.5075 Y4.7721
G01 X5.9714 Y4.7721
G01 X5.9949 Y4.7509
G01 X6.0033 Y4.7438
G01 X6.0881 Y4.6809
G01 X6.0973 Y4.6749
G01 X6.1847 Y4.6226
G01 X6.1945 Y4.6175
G01 X6.2900 Y4.5725
G01 X6.3927 Y4.5357
G01 X6.4033 Y4.5326
G01 X6.5057 Y4.5071
G01 X6.6173 Y4.4906
G01 X6.7300 Y4.4850
G01 X6.8354 Y4.4900
G01 X6.8464 Y4.4910
G01 X6.9544 Y4.5071
G01 X7.0639 Y4.5345
G01 X7.1701 Y4.5726
G01 X7.2656 Y4.6175
G01 X7.2785 Y4.6244
G01 X7.3627 Y4.6749
G01 X7.3749 Y4.6831
G01 X7.4596 Y4.7461
G01 X7.5432 Y4.8219
G01 X7.6190 Y4.9055
G01 X7.6820 Y4.9901
G01 X7.6902 Y5.0023
G01 X7.7406 Y5.0865
G01 X7.7475 Y5.0995
G01 X7.7925 Y5.1949
G01 X7.8305 Y5.3012
G01 X7.8579 Y5.4107
G01 X7.8719 Y5.5036
G01 X8.1030 Y5.7346
G01 X11.4703 Y5.7346
G01 X12.1796 Y5.0253
G01 X12.1796 Y4.6985
G01 X12.1238 Y4.6229
G01 X12.0694 Y4.5325
G01 X12.0625 Y4.5196
G01 X12.0175 Y4.4240
G01 X11.9795 Y4.3179
G01 X11.9537 Y4.2156
G01 X11.9509 Y4.2011
G01 X11.9356 Y4.0967
G01 X11.9302 Y3.9914
G01 X11.9302 Y3.9767
G01 X11.9356 Y3.8713
G01 X11.9514 Y3.7633
G01 X11.9537 Y3.7525
G01 X11.9776 Y3.6573
G01 X11.9805 Y3.6471
G01 X12.0162 Y3.5474
G01 X12.0205 Y3.5372
G01 X12.0356 Y3.5053
G01 X11.7897 Y3.2594
G01 X11.7747 Y3.2573
G01 X11.7606 Y3.2538
G01 X11.7469 Y3.2490
G01 X11.7338 Y3.2430
G01 X11.7213 Y3.2356
G01 X11.6628 Y3.1974
G01 X11.6540 Y3.1913
G01 X11.6457 Y3.1845
G01 X11.6379 Y3.1771
G01 X11.6307 Y3.1692
G01 X11.5036 Y3.0204
G01 X11.3410 Y2.8816
G01 X11.1587 Y2.7698
G01 X11.0972 Y2.7444
G01 X11.0145 Y2.7090
G01 X10.9966 Y2.7027
G01 X10.9611 Y2.6880
G01 X10.7532 Y2.6381
G01 X10.7051 Y2.6343
G01 X10.6796 Y2.6305
G01 X10.6687 Y2.6284
G01 X10.4018 Y2.5668
G01 X10.3819 Y2.5614
G01 X10.3684 Y2.5566
G01 X10.3586 Y2.5522
G01 X10.3461 Y2.5452
G01 X10.2833 Y2.5038
G01 X10.2744 Y2.4967
G01 X10.2669 Y2.4899
G01 X10.1303 Y2.3778
G01 X9.9811 Y2.2980
G01 X9.8193 Y2.2489
G01 X9.6510 Y2.2324
G01 X9.6186 Y2.2355
G01 X9.5954 Y2.2365
G01 X8.9073 Y2.2365
G01 X8.8918 Y2.2360
G01 X8.8784 Y2.2365
G01 X8.8313 Y2.2365
G01 X8.8159 Y2.2357
G01 X8.7731 Y2.2301
G01 X8.7618 Y2.2276
G01 X7.2114 Y1.8212
G01 X7.1824 Y1.8118
G01 X7.1511 Y1.7990
G01 X6.9432 Y1.7491
G01 X6.7300 Y1.7323
G01 X6.5169 Y1.7491
G01 X6.3089 Y1.7990
G01 X6.2766 Y1.8122
G01 X6.2470 Y1.8217
G01 X4.6983 Y2.2276
G01 X4.6832 Y2.2307
G01 X4.6441 Y2.2357
G01 X4.6288 Y2.2365
G01 X1.4517 Y2.2365
G01 X1.4285 Y2.2355
G01 X1.3960 Y2.2324
G01 X1.2277 Y2.2489
G01 X1.0659 Y2.2980
G01 X0.9168 Y2.3778
G01 X0.7860 Y2.4850
G01 X0.7653 Y2.5102
G01 X0.7496 Y2.5273
G01 X0.3683 Y2.9087
G01 X0.3552 Y2.9209
G01 X0.3494 Y2.9258
G01 X0.3404 Y2.9325
G01 X0.3341 Y2.9365
G01 X0.3276 Y2.9403
G01 X0.3180 Y2.9451
G01 X0.2476 Y2.9770
G01 X0.2406 Y2.9796
G01 X0.2299 Y2.9828
G01 X0.2227 Y2.9845
G01 X0.2117 Y2.9864
G01 X0.2005 Y2.9874
G01 X0.1931 Y2.9877
G01 X0.1857 Y2.9875
G01 X0.1745 Y2.9866
G01 X0.0980 Y2.9756
G01 X0.0907 Y2.9742
G01 X0.0799 Y2.9714
G01 X0.0658 Y2.9664
G01 X0.0557 Y2.9618
G01 X0.0427 Y2.9544
G01 X0.0305 Y2.9458
G01 X-0.0308 Y2.8929
G01 X-0.0413 Y2.8823
G01 X-0.0507 Y2.8707
G01 X-0.0570 Y2.8615
G01 X-0.0625 Y2.8518
G01 X-0.0674 Y2.8417
G01 X-0.0726 Y2.8278
G01 X-0.0952 Y2.7503
G01 X-0.0979 Y2.7363
G01 X-0.0993 Y2.7221
G01 X-0.0994 Y0.1710
G01 X-0.0984 Y0.1567
G01 X-0.0968 Y0.1461
G01 X-0.0848 Y0.0911
G01 X-0.0809 Y0.0767
G01 X-0.0756 Y0.0627
G01 X-0.0689 Y0.0493
G01 X-0.0609 Y0.0366
G01 X-0.0516 Y0.0248
G00 Z2.0000
G00 X-0.0894 Y-0.0080
G01 F60.00
G01 Z-0.3172
G01 F80.00
G01 X-0.0437 Y-0.0608
G01 X-0.0299 Y-0.0751
G01 X-0.0225 Y-0.0817
G01 X-0.0109 Y-0.0910
G01 X0.0015 Y-0.0994
G01 X0.0144 Y-0.1068
G01 X0.0324 Y-0.1152
G01 X0.0464 Y-0.1202
G01 X0.1228 Y-0.1427
G01 X0.1367 Y-0.1459
G01 X0.1461 Y-0.1474
G01 X0.1603 Y-0.1490
G01 X0.1745 Y-0.1495
G01 X19.9255 Y-0.1495
G01 X19.9445 Y-0.1486
G01 X19.9587 Y-0.1467
G01 X20.0293 Y-0.1313
G01 X20.0436 Y-0.1269
G01 X20.0575 Y-0.1214
G01 X20.0710 Y-0.1148
G01 X20.0840 Y-0.1073
G01 X20.0963 Y-0.0988
G01 X20.1080 Y-0.0894
G01 X20.1645 Y-0.0404
G01 X20.1785 Y-0.0263
G01 X20.1881 Y-0.0148
G01 X20.1994 Y0.0015
G01 X20.2091 Y0.0188
G01 X20.2170 Y0.0370
G01 X20.2217 Y0.0511
G01 X20.2439 Y0.1274
G01 X20.2459 Y0.1367
G01 X20.2481 Y0.1508
G01 X20.2490 Y0.1603
G01 X20.2495 Y0.1745
G01 X20.2495 Y53.9255
G01 X20.2486 Y53.9445
G01 X20.2468 Y53.9587
G01 X20.2314 Y54.0293
G01 X20.2269 Y54.0436
G01 X20.2214 Y54.0575
G01 X20.2149 Y54.0710
G01 X20.2073 Y54.0840
G01 X20.1989 Y54.0963
G01 X20.1895 Y54.1080
G01 X20.1404 Y54.1645
G01 X20.1263 Y54.1785
G01 X20.1149 Y54.1881
G01 X20.0986 Y54.1994
G01 X20.0813 Y54.2091
G01 X20.0630 Y54.2170
G01 X20.0489 Y54.2217
G01 X19.9727 Y54.2439
G01 X19.9634 Y54.2459
G01 X19.9493 Y54.2481
G01 X19.9398 Y54.2490
G01 X19.9255 Y54.2495
G01 X10.7918 Y54.2495
G01 X10.7775 Y54.2486
G01 X10.7634 Y54.2468
G01 X10.7025 Y54.2337
G01 X10.6832 Y54.2285
G01 X10.6738 Y54.2252
G01 X10.6600 Y54.2193
G01 X10.6510 Y54.2149
G01 X10.6381 Y54.2073
G01 X10.6218 Y54.1958
G01 X10.5612 Y54.1437
G01 X10.5504 Y54.1335
G01 X10.5371 Y54.1188
G01 X10.5253 Y54.1028
G01 X10.5152 Y54.0857
G01 X10.5068 Y54.0677
G01 X10.5003 Y54.0489
G01 X10.4793 Y53.9773
G01 X10.4753 Y53.9587
G01 X10.4734 Y53.9445
G01 X10.4728 Y53.9350
G01 X10.4725 Y45.3885
G01 X10.4730 Y45.3743
G01 X10.4753 Y45.3554
G01 X10.4883 Y45.2945
G01 X10.4920 Y45.2800
G01 X10.4968 Y45.2658
G01 X10.5049 Y45.2475
G01 X10.5147 Y45.2301
G01 X10.5262 Y45.2138
G01 X10.5783 Y45.1532
G01 X10.5885 Y45.1424
G01 X10.5995 Y45.1323
G01 X10.6072 Y45.1260
G01 X10.6193 Y45.1173
G01 X10.6320 Y45.1096
G01 X10.6498 Y45.1008
G01 X10.6637 Y45.0953
G01 X10.7402 Y45.0726
G01 X10.7540 Y45.0691
G01 X10.7681 Y45.0666
G01 X10.7823 Y45.0650
G01 X10.7918 Y45.0646
G01 X17.3867 Y45.0645
G01 X17.5031 Y45.0478
G01 X17.5427 Y45.0362
G01 X17.6364 Y44.9933
G01 X17.7144 Y44.9258
G01 X17.7414 Y44.8946
G01 X17.7991 Y44.8049
G01 X17.8224 Y44.7347
G01 X17.8291 Y44.7041
G01 X17.8385 Y44.6163
G01 X17.8385 Y24.2005
G01 X17.8388 Y24.1902
G01 X17.8396 Y24.1799
G01 X17.8409 Y24.1697
G01 X17.8428 Y24.1596
G01 X17.8582 Y24.0941
G01 X17.8611 Y24.0842
G01 X17.8645 Y24.0745
G01 X17.8684 Y24.0650
G01 X17.8727 Y24.0556
G01 X18.0526 Y23.6958
G01 X18.0852 Y23.6059
G01 X18.0930 Y23.5731
G01 X18.0986 Y23.5243
G01 X18.0986 Y3.5176
G01 X18.0873 Y3.4386
G01 X18.0757 Y3.3990
G01 X18.0291 Y3.2970
G01 X18.0164 Y3.2794
G01 X17.6341 Y2.8971
G01 X17.5702 Y2.8493
G01 X17.5340 Y2.8296
G01 X17.4289 Y2.7904
G01 X17.3994 Y2.7856
G01 X17.3837 Y2.7839
G01 X17.3395 Y2.7815
G01 X17.2583 Y2.7815
G01 X17.1420 Y2.7983
G01 X17.1093 Y2.8078
G01 X17.0994 Y2.8102
G01 X17.0893 Y2.8120
G01 X17.0306 Y2.8185
G01 X17.0159 Y2.8192
G01 X17.0062 Y2.8191
G01 X16.9916 Y2.8179
G01 X16.9771 Y2.8158
G01 X16.9581 Y2.8112
G01 X16.9442 Y2.8066
G01 X16.8743 Y2.7805
G01 X16.8570 Y2.7726
G01 X16.8445 Y2.7656
G01 X16.8326 Y2.7577
G01 X16.7694 Y2.7105
G01 X16.6829 Y2.6782
G01 X16.6579 Y2.6755
G01 X14.5821 Y2.6755
G01 X14.5572 Y2.6782
G01 X14.4707 Y2.7105
G01 X14.3996 Y2.7636
G01 X14.3375 Y2.8467
G01 X14.3309 Y2.8574
G01 X14.3253 Y2.8655
G01 X14.3129 Y2.8808
G01 X14.3026 Y2.8914
G01 X14.2487 Y2.9433
G01 X14.2374 Y2.9529
G01 X14.2212 Y2.9644
G01 X14.2083 Y2.9720
G01 X14.1904 Y2.9805
G01 X14.1764 Y2.9857
G01 X14.1573 Y2.9910
G01 X14.0741 Y3.0073
G01 X14.0543 Y3.0092
G01 X14.0444 Y3.0094
G01 X14.0304 Y3.0088
G01 X14.0304 Y3.2530
G01 X14.0778 Y3.3173
G01 X14.1383 Y3.4183
G01 X14.1887 Y3.5249
G01 X14.2269 Y3.6310
G01 X14.2310 Y3.6451
G01 X14.2570 Y3.7499
G01 X14.2730 Y3.8567
G01 X14.2750 Y3.8762
G01 X14.2798 Y3.9742
G01 X14.2800 Y3.9889
G01 X14.2742 Y4.1016
G01 X14.2586 Y4.2085
G01 X14.2548 Y4.2277
G01 X14.2310 Y4.3229
G01 X14.2269 Y4.3370
G01 X14.1887 Y4.4432
G01 X14.1383 Y4.5497
G01 X14.0778 Y4.6507
G01 X14.0304 Y4.7150
G01 X14.0304 Y5.3982
G01 X14.0262 Y5.4865
G01 X14.0246 Y5.5011
G01 X14.0138 Y5.5740
G01 X14.0100 Y5.5932
G01 X13.9895 Y5.6741
G01 X13.9616 Y5.7528
G01 X13.9561 Y5.7664
G01 X13.9182 Y5.8462
G01 X13.8704 Y5.9259
G01 X13.8646 Y5.9343
G01 X13.8147 Y6.0011
G01 X13.7555 Y6.0667
G01 X12.5117 Y7.3105
G01 X12.4461 Y7.3697
G01 X12.3793 Y7.4196
G01 X12.3629 Y7.4305
G01 X12.2912 Y7.4732
G01 X12.2159 Y7.5091
G01 X12.1978 Y7.5166
G01 X12.1191 Y7.5445
G01 X12.0334 Y7.5661
G01 X12.0190 Y7.5688
G01 X11.9364 Y7.5808
G01 X11.8432 Y7.5854
G01 X7.7300 Y7.5854
G01 X7.6369 Y7.5808
G01 X7.5543 Y7.5688
G01 X7.5350 Y7.5650
G01 X7.4541 Y7.5445
G01 X7.3755 Y7.5166
G01 X7.3574 Y7.5091
G01 X7.2908 Y7.4776
G01 X7.2735 Y7.4683
G01 X7.2020 Y7.4252
G01 X7.1349 Y7.3757
G01 X7.1197 Y7.3633
G01 X7.0580 Y7.3070
G01 X6.5749 Y6.8239
G01 X6.4959 Y6.8120
G01 X6.3911 Y6.7860
G01 X6.3724 Y6.7803
G01 X6.2754 Y6.7455
G01 X6.2618 Y6.7397
G01 X6.1643 Y6.6933
G01 X6.0716 Y6.6380
G01 X6.0593 Y6.6300
G01 X6.0496 Y6.6229
G01 X3.5240 Y6.6229
G01 X3.4597 Y6.6703
G01 X3.3672 Y6.7260
G01 X3.3499 Y6.7352
G01 X3.2612 Y6.7772
G01 X3.2431 Y6.7847
G01 X3.1414 Y6.8209
G01 X3.0319 Y6.8485
G01 X3.0175 Y6.8511
G01 X2.9106 Y6.8667
G01 X2.7930 Y6.8725
G01 X2.6754 Y6.8667
G01 X2.5589 Y6.8495
G01 X2.4447 Y6.8209
G01 X2.3430 Y6.7847
G01 X2.3248 Y6.7772
G01 X2.2361 Y6.7352
G01 X2.2188 Y6.7260
G01 X2.1263 Y6.6703
G01 X2.0318 Y6.6001
G01 X1.9445 Y6.5211
G01 X1.8718 Y6.4412
G01 X1.8594 Y6.4261
G01 X1.8009 Y6.3472
G01 X1.7900 Y6.3309
G01 X1.7347 Y6.2382
G01 X1.6844 Y6.1317
G01 X1.6447 Y6.0209
G01 X1.6182 Y5.9162
G01 X1.6144 Y5.8970
G01 X1.6000 Y5.7999
G01 X1.5981 Y5.7804
G01 X1.5930 Y5.6725
G01 X1.5988 Y5.5549
G01 X1.6161 Y5.4384
G01 X1.6421 Y5.3336
G01 X1.6475 Y5.3156
G01 X1.6808 Y5.2225
G01 X1.6883 Y5.2043
G01 X1.7347 Y5.1068
G01 X1.7953 Y5.0058
G01 X1.8654 Y4.9113
G01 X1.9377 Y4.8311
G01 X1.9516 Y4.8172
G01 X2.0243 Y4.7513
G01 X2.0395 Y4.7389
G01 X2.1263 Y4.6748
G01 X2.2273 Y4.6142
G01 X2.3339 Y4.5638
G01 X2.4354 Y4.5273
G01 X2.4541 Y4.5216
G01 X2.5589 Y4.4956
G01 X2.6657 Y4.4795
G01 X2.6852 Y4.4776
G01 X2.7930 Y4.4725
G01 X2.9009 Y4.4776
G01 X2.9204 Y4.4795
G01 X3.0223 Y4.4947
G01 X3.0367 Y4.4977
G01 X3.1410 Y4.5241
G01 X3.2431 Y4.5603
G01 X3.2568 Y4.5658
G01 X3.3499 Y4.6098
G01 X3.3672 Y4.6191
G01 X3.4597 Y4.6748
G01 X3.5240 Y4.7221
G01 X5.9521 Y4.7221
G01 X5.9650 Y4.7106
G01 X5.9726 Y4.7043
G01 X6.0633 Y4.6373
G01 X6.1643 Y4.5767
G01 X6.2709 Y4.5263
G01 X6.3817 Y4.4867
G01 X6.4959 Y4.4581
G01 X6.6124 Y4.4408
G01 X6.7300 Y4.4350
G01 X6.8379 Y4.4401
G01 X6.8525 Y4.4413
G01 X6.9641 Y4.4581
G01 X7.0784 Y4.4867
G01 X7.1892 Y4.5264
G01 X7.2869 Y4.5723
G01 X7.3042 Y4.5816
G01 X7.3884 Y4.6320
G01 X7.4047 Y4.6429
G01 X7.4913 Y4.7074
G01 X7.5786 Y4.7865
G01 X7.6576 Y4.8738
G01 X7.7221 Y4.9603
G01 X7.7330 Y4.9766
G01 X7.7835 Y5.0608
G01 X7.7906 Y5.0737
G01 X7.8387 Y5.1758
G01 X7.8784 Y5.2867
G01 X7.9070 Y5.4009
G01 X7.9189 Y5.4799
G01 X8.1237 Y5.6846
G01 X11.4496 Y5.6846
G01 X12.1296 Y5.0046
G01 X12.1296 Y4.7150
G01 X12.0823 Y4.6507
G01 X12.0241 Y4.5540
G01 X12.0173 Y4.5409
G01 X11.9753 Y4.4522
G01 X11.9695 Y4.4386
G01 X11.9317 Y4.3324
G01 X11.9052 Y4.2277
G01 X11.9014 Y4.2085
G01 X11.8858 Y4.1016
G01 X11.8803 Y3.9938
G01 X11.8803 Y3.9742
G01 X11.8858 Y3.8664
G01 X11.9014 Y3.7596
G01 X11.9052 Y3.7403
G01 X11.9316 Y3.6361
G01 X11.9678 Y3.5340
G01 X11.9754 Y3.5158
G01 X11.7661 Y3.3065
G01 X11.7511 Y3.3031
G01 X11.7372 Y3.2988
G01 X11.7193 Y3.2915
G01 X11.7064 Y3.2850
G01 X11.6939 Y3.2775
G01 X11.6315 Y3.2367
G01 X11.6200 Y3.2282
G01 X11.6127 Y3.2220
G01 X11.6023 Y3.2122
G01 X11.5927 Y3.2017
G01 X11.4681 Y3.0559
G01 X11.3115 Y2.9222
G01 X11.1359 Y2.8145
G01 X11.0778 Y2.7905
G01 X10.9941 Y2.7548
G01 X10.9785 Y2.7493
G01 X10.9456 Y2.7357
G01 X10.7454 Y2.6876
G01 X10.6951 Y2.6834
G01 X10.6671 Y2.6791
G01 X10.6574 Y2.6771
G01 X10.3906 Y2.6155
G01 X10.3675 Y2.6093
G01 X10.3494 Y2.6029
G01 X10.3321 Y2.5948
G01 X10.3197 Y2.5876
G01 X10.2538 Y2.5442
G01 X10.2457 Y2.5380
G01 X10.2336 Y2.5272
G01 X10.1024 Y2.4195
G01 X9.9619 Y2.3445
G01 X9.8095 Y2.2982
G01 X9.6510 Y2.2826
G01 X9.6222 Y2.2854
G01 X9.5954 Y2.2865
G01 X8.9073 Y2.2865
G01 X8.8921 Y2.2861
G01 X8.8784 Y2.2865
G01 X8.8313 Y2.2865
G01 X8.8210 Y2.2863
G01 X8.8108 Y2.2855
G01 X8.7641 Y2.2793
G01 X8.7491 Y2.2759
G01 X7.1987 Y1.8696
G01 X7.1900 Y1.8671
G01 X7.1654 Y1.8588
G01 X7.1356 Y1.8467
G01 X6.9354 Y1.7986
G01 X6.7300 Y1.7825
G01 X6.5247 Y1.7986
G01 X6.3244 Y1.8467
G01 X6.2933 Y1.8593
G01 X6.2600 Y1.8700
G01 X4.7109 Y2.2759
G01 X4.7010 Y2.2783
G01 X4.6909 Y2.2801
G01 X4.6493 Y2.2855
G01 X4.6390 Y2.2863
G01 X4.6288 Y2.2865
G01 X1.4517 Y2.2865
G01 X1.4248 Y2.2854
G01 X1.3960 Y2.2826
G01 X1.2375 Y2.2982
G01 X1.0851 Y2.3445
G01 X0.9447 Y2.4195
G01 X0.8216 Y2.5206
G01 X0.8032 Y2.5429
G01 X0.7850 Y2.5627
G01 X0.4036 Y2.9440
G01 X0.3883 Y2.9584
G01 X0.3807 Y2.9648
G01 X0.3727 Y2.9709
G01 X0.3602 Y2.9792
G01 X0.3427 Y2.9887
G01 X0.2661 Y3.0235
G01 X0.2568 Y3.0269
G01 X0.2425 Y3.0312
G01 X0.2329 Y3.0335
G01 X0.2182 Y3.0360
G01 X0.2083 Y3.0370
G01 X0.1934 Y3.0377
G01 X0.1785 Y3.0372
G01 X0.1686 Y3.0363
G01 X0.0896 Y3.0249
G01 X0.0751 Y3.0219
G01 X0.0655 Y3.0193
G01 X0.0468 Y3.0126
G01 X0.0332 Y3.0064
G01 X0.0159 Y2.9966
G01 X0.0037 Y2.9882
G01 X-0.0080 Y2.9789
G01 X-0.0645 Y2.9298
G01 X-0.0785 Y2.9157
G01 X-0.0910 Y2.9003
G01 X-0.1020 Y2.8838
G01 X-0.1090 Y2.8707
G01 X-0.1152 Y2.8571
G01 X-0.1202 Y2.8431
G01 X-0.1438 Y2.7621
G01 X-0.1474 Y2.7434
G01 X-0.1492 Y2.7244
G01 X-0.1494 Y0.1698
G01 X-0.1481 Y0.1508
G01 X-0.1459 Y0.1367
G01 X-0.1337 Y0.0805
G01 X-0.1285 Y0.0612
G01 X-0.1214 Y0.0425
G01 X-0.1124 Y0.0247
G01 X-0.1017 Y0.0078
G01 X-0.0894 Y-0.0080
G00 Z2.0000
G00 X-0.0138 Y0.0575
G01 F60.00
G01 Z-0.3172
G01 F80.00
G01 X0.0353 Y0.0011
G01 X0.0406 Y-0.0041
G01 X0.0463 Y-0.0089
G01 X0.0524 Y-0.0132
G01 X0.0587 Y-0.0171
G01 X0.0676 Y-0.0215
G01 X0.0769 Y-0.0250
G01 X0.1486 Y-0.0461
G01 X0.1556 Y-0.0477
G01 X0.1627 Y-0.0488
G01 X0.1745 Y-0.0495
G01 X19.9255 Y-0.0495
G01 X19.9350 Y-0.0490
G01 X19.9445 Y-0.0477
G01 X20.0007 Y-0.0354
G01 X20.0079 Y-0.0334
G01 X20.0150 Y-0.0308
G01 X20.0218 Y-0.0277
G01 X20.0284 Y-0.0241
G01 X20.0347 Y-0.0200
G01 X20.0406 Y-0.0155
G01 X20.0953 Y0.0319
G01 X20.1008 Y0.0370
G01 X20.1090 Y0.0463
G01 X20.1146 Y0.0545
G01 X20.1195 Y0.0631
G01 X20.1234 Y0.0722
G01 X20.1258 Y0.0793
G01 X20.1467 Y0.1509
G01 X20.1488 Y0.1627
G01 X20.1495 Y0.1745
G01 X20.1495 Y53.9255
G01 X20.1491 Y53.9350
G01 X20.1477 Y53.9445
G01 X20.1355 Y54.0007
G01 X20.1334 Y54.0079
G01 X20.1308 Y54.0150
G01 X20.1277 Y54.0218
G01 X20.1241 Y54.0284
G01 X20.1201 Y54.0347
G01 X20.1155 Y54.0406
G01 X20.0681 Y54.0953
G01 X20.0631 Y54.1008
G01 X20.0537 Y54.1090
G01 X20.0456 Y54.1146
G01 X20.0369 Y54.1195
G01 X20.0278 Y54.1234
G01 X20.0207 Y54.1258
G01 X19.9491 Y54.1467
G01 X19.9374 Y54.1488
G01 X19.9255 Y54.1495
G01 X10.7941 Y54.1495
G01 X10.7847 Y54.1488
G01 X10.7776 Y54.1477
G01 X10.7213 Y54.1355
G01 X10.7117 Y54.1326
G01 X10.7003 Y54.1277
G01 X10.6895 Y54.1215
G01 X10.6814 Y54.1155
G01 X10.6267 Y54.0681
G01 X10.6213 Y54.0631
G01 X10.6146 Y54.0557
G01 X10.6074 Y54.0456
G01 X10.6026 Y54.0369
G01 X10.5986 Y54.0278
G01 X10.5963 Y54.0207
G01 X10.5759 Y53.9514
G01 X10.5739 Y53.9421
G01 X10.5726 Y53.9303
G01 X10.5725 Y45.3885
G01 X10.5730 Y45.3790
G01 X10.5743 Y45.3696
G01 X10.5860 Y45.3158
G01 X10.5879 Y45.3085
G01 X10.5903 Y45.3014
G01 X10.5943 Y45.2923
G01 X10.5992 Y45.2836
G01 X10.6050 Y45.2754
G01 X10.6573 Y45.2151
G01 X10.6626 Y45.2099
G01 X10.6683 Y45.2051
G01 X10.6786 Y45.1981
G01 X10.6874 Y45.1935
G01 X10.6989 Y45.1890
G01 X10.7684 Y45.1686
G01 X10.7799 Y45.1659
G01 X10.7870 Y45.1650
G01 X10.7941 Y45.1646
G01 X17.3939 Y45.1645
G01 X17.5244 Y45.1458
G01 X17.5777 Y45.1301
G01 X17.6911 Y45.0783
G01 X17.7853 Y44.9967
G01 X17.8216 Y44.9547
G01 X17.8900 Y44.8483
G01 X17.9190 Y44.7612
G01 X17.9279 Y44.7202
G01 X17.9385 Y44.6217
G01 X17.9385 Y24.2005
G01 X17.9391 Y24.1902
G01 X17.9412 Y24.1775
G01 X17.9549 Y24.1196
G01 X17.9572 Y24.1122
G01 X17.9600 Y24.1050
G01 X18.1447 Y23.7353
G01 X18.1812 Y23.6346
G01 X18.1916 Y23.5904
G01 X18.1986 Y23.5301
G01 X18.1986 Y3.5104
G01 X18.1853 Y3.4173
G01 X18.1696 Y3.3640
G01 X18.1160 Y3.2465
G01 X18.0928 Y3.2144
G01 X17.6998 Y2.8214
G01 X17.6244 Y2.7650
G01 X17.5757 Y2.7384
G01 X17.4547 Y2.6932
G01 X17.4128 Y2.6864
G01 X17.3917 Y2.6842
G01 X17.3422 Y2.6815
G01 X17.2512 Y2.6815
G01 X17.1207 Y2.7003
G01 X17.0836 Y2.7111
G01 X17.0711 Y2.7136
G01 X17.0199 Y2.7190
G01 X17.0077 Y2.7190
G01 X16.9956 Y2.7175
G01 X16.9861 Y2.7152
G01 X16.9791 Y2.7129
G01 X16.9114 Y2.6876
G01 X16.9007 Y2.6826
G01 X16.8945 Y2.6789
G01 X16.8887 Y2.6749
G01 X16.8178 Y2.6218
G01 X16.7060 Y2.5801
G01 X16.6633 Y2.5755
G01 X14.5767 Y2.5755
G01 X14.5340 Y2.5801
G01 X14.4222 Y2.6218
G01 X14.3282 Y2.6922
G01 X14.2535 Y2.7920
G01 X14.2460 Y2.8044
G01 X14.2384 Y2.8141
G01 X14.2333 Y2.8194
G01 X14.1793 Y2.8712
G01 X14.1735 Y2.8759
G01 X14.1674 Y2.8801
G01 X14.1609 Y2.8839
G01 X14.1543 Y2.8872
G01 X14.1450 Y2.8908
G01 X14.1354 Y2.8934
G01 X14.0645 Y2.9075
G01 X14.0571 Y2.9087
G01 X14.0497 Y2.9093
G01 X14.0373 Y2.9091
G01 X14.0250 Y2.9074
G01 X14.0177 Y2.9056
G01 X14.0107 Y2.9033
G01 X13.9433 Y2.8768
G01 X13.9368 Y2.8739
G01 X13.9304 Y2.8705
G01 X13.9304 Y3.2863
G01 X13.9946 Y3.3729
G01 X14.0501 Y3.4655
G01 X14.0963 Y3.5631
G01 X14.1311 Y3.6601
G01 X14.1340 Y3.6694
G01 X14.1578 Y3.7646
G01 X14.1597 Y3.7743
G01 X14.1747 Y3.8762
G01 X14.1799 Y3.9791
G01 X14.1800 Y3.9865
G01 X14.1747 Y4.0918
G01 X14.1589 Y4.1986
G01 X14.1327 Y4.3033
G01 X14.0981 Y4.4004
G01 X14.0943 Y4.4095
G01 X14.0523 Y4.4982
G01 X14.0477 Y4.5068
G01 X13.9946 Y4.5952
G01 X13.9304 Y4.6818
G01 X13.9304 Y5.3982
G01 X13.9265 Y5.4791
G01 X13.9149 Y5.5593
G01 X13.9130 Y5.5689
G01 X13.8938 Y5.6451
G01 X13.8657 Y5.7237
G01 X13.8300 Y5.7991
G01 X13.7872 Y5.8705
G01 X13.7374 Y5.9377
G01 X13.6830 Y5.9978
G01 X12.4428 Y7.2380
G01 X12.3827 Y7.2924
G01 X12.3197 Y7.3393
G01 X12.3115 Y7.3447
G01 X12.2441 Y7.3850
G01 X12.1731 Y7.4187
G01 X12.1641 Y7.4224
G01 X12.0901 Y7.4488
G01 X12.0115 Y7.4686
G01 X12.0043 Y7.4699
G01 X11.9266 Y7.4813
G01 X11.8432 Y7.4854
G01 X7.7300 Y7.4854
G01 X7.6467 Y7.4813
G01 X7.5690 Y7.4699
G01 X7.5593 Y7.4680
G01 X7.4832 Y7.4488
G01 X7.4092 Y7.4224
G01 X7.4001 Y7.4187
G01 X7.3292 Y7.3850
G01 X7.2617 Y7.3447
G01 X7.2536 Y7.3393
G01 X7.1925 Y7.2939
G01 X7.1868 Y7.2892
G01 X7.1287 Y7.2363
G01 X6.6221 Y6.7297
G01 X6.5203 Y6.7147
G01 X6.5106 Y6.7128
G01 X6.4107 Y6.6877
G01 X6.3114 Y6.6522
G01 X6.3046 Y6.6493
G01 X6.2159 Y6.6073
G01 X6.2093 Y6.6040
G01 X6.1210 Y6.5510
G01 X6.0826 Y6.5229
G01 X3.4908 Y6.5229
G01 X3.4042 Y6.5871
G01 X3.3116 Y6.6426
G01 X3.2140 Y6.6888
G01 X3.1170 Y6.7236
G01 X3.1076 Y6.7265
G01 X3.0076 Y6.7514
G01 X2.9057 Y6.7666
G01 X2.8959 Y6.7676
G01 X2.7979 Y6.7724
G01 X2.7881 Y6.7724
G01 X2.6852 Y6.7672
G01 X2.5808 Y6.7518
G01 X2.5736 Y6.7503
G01 X2.4737 Y6.7252
G01 X2.3767 Y6.6906
G01 X2.3676 Y6.6868
G01 X2.2789 Y6.6448
G01 X2.2702 Y6.6402
G01 X2.1819 Y6.5871
G01 X2.0952 Y6.5228
G01 X2.0152 Y6.4503
G01 X1.9459 Y6.3741
G01 X1.9397 Y6.3665
G01 X1.8812 Y6.2877
G01 X1.8758 Y6.2795
G01 X1.8229 Y6.1911
G01 X1.7768 Y6.0935
G01 X1.7404 Y5.9918
G01 X1.7152 Y5.8919
G01 X1.7133 Y5.8823
G01 X1.6989 Y5.7852
G01 X1.6980 Y5.7754
G01 X1.6930 Y5.6725
G01 X1.6983 Y5.5647
G01 X1.7142 Y5.4579
G01 X1.7391 Y5.3579
G01 X1.7418 Y5.3489
G01 X1.7750 Y5.2562
G01 X1.7787 Y5.2471
G01 X1.8229 Y5.1540
G01 X1.8784 Y5.0614
G01 X1.9427 Y4.9747
G01 X2.0118 Y4.8983
G01 X2.0188 Y4.8913
G01 X2.0915 Y4.8254
G01 X2.0991 Y4.8192
G01 X2.1819 Y4.7579
G01 X2.2745 Y4.7024
G01 X2.3721 Y4.6562
G01 X2.4714 Y4.6206
G01 X2.4784 Y4.6186
G01 X2.5784 Y4.5937
G01 X2.6803 Y4.5784
G01 X2.6901 Y4.5775
G01 X2.7930 Y4.5725
G01 X2.8959 Y4.5775
G01 X2.9057 Y4.5784
G01 X3.0076 Y4.5937
G01 X3.1121 Y4.6198
G01 X3.2094 Y4.6545
G01 X3.2185 Y4.6582
G01 X3.3116 Y4.7024
G01 X3.4000 Y4.7553
G01 X3.4082 Y4.7607
G01 X3.4908 Y4.8221
G01 X5.9907 Y4.8221
G01 X6.0341 Y4.7832
G01 X6.1169 Y4.7218
G01 X6.1230 Y4.7178
G01 X6.2093 Y4.6661
G01 X6.2159 Y4.6627
G01 X6.3091 Y4.6187
G01 X6.4084 Y4.5831
G01 X6.4154 Y4.5811
G01 X6.5154 Y4.5562
G01 X6.6222 Y4.5403
G01 X6.7300 Y4.5350
G01 X6.8329 Y4.5400
G01 X6.8403 Y4.5406
G01 X6.9446 Y4.5562
G01 X7.0493 Y4.5824
G01 X7.1510 Y4.6188
G01 X7.2442 Y4.6627
G01 X7.2528 Y4.6673
G01 X7.3370 Y4.7178
G01 X7.3452 Y4.7232
G01 X7.4279 Y4.7847
G01 X7.5078 Y4.8572
G01 X7.5803 Y4.9372
G01 X7.6418 Y5.0199
G01 X7.6473 Y5.0280
G01 X7.6977 Y5.1122
G01 X7.7023 Y5.1209
G01 X7.7463 Y5.2141
G01 X7.7827 Y5.3157
G01 X7.8089 Y5.4204
G01 X7.8247 Y5.5271
G01 X8.0823 Y5.7846
G01 X11.4910 Y5.7846
G01 X12.2296 Y5.0460
G01 X12.2296 Y4.6818
G01 X12.1654 Y4.5952
G01 X12.1123 Y4.5068
G01 X12.1077 Y4.4982
G01 X12.0637 Y4.4049
G01 X12.0274 Y4.3033
G01 X12.0022 Y4.2034
G01 X12.0003 Y4.1938
G01 X11.9853 Y4.0918
G01 X11.9801 Y3.9889
G01 X11.9801 Y3.9791
G01 X11.9853 Y3.8762
G01 X12.0007 Y3.7718
G01 X12.0022 Y3.7646
G01 X12.0261 Y3.6694
G01 X12.0288 Y3.6604
G01 X12.0638 Y3.5631
G01 X12.0959 Y3.4949
G01 X11.8124 Y3.2113
G01 X11.7914 Y3.2093
G01 X11.7819 Y3.2077
G01 X11.7702 Y3.2044
G01 X11.7613 Y3.2008
G01 X11.7548 Y3.1975
G01 X11.7486 Y3.1938
G01 X11.6842 Y3.1515
G01 X11.6770 Y3.1453
G01 X11.6687 Y3.1368
G01 X11.5391 Y2.9850
G01 X11.3705 Y2.8410
G01 X11.1814 Y2.7252
G01 X11.1166 Y2.6983
G01 X11.0323 Y2.6623
G01 X11.0148 Y2.6561
G01 X10.9766 Y2.6403
G01 X10.7610 Y2.5886
G01 X10.7103 Y2.5845
G01 X10.6799 Y2.5797
G01 X10.4131 Y2.5181
G01 X10.3963 Y2.5135
G01 X10.3891 Y2.5110
G01 X10.3822 Y2.5080
G01 X10.3733 Y2.5032
G01 X10.3285 Y2.4729
G01 X10.3206 Y2.4686
G01 X10.3124 Y2.4631
G01 X10.3067 Y2.4585
G01 X10.3003 Y2.4526
G01 X10.1582 Y2.3360
G01 X10.0004 Y2.2516
G01 X9.8291 Y2.1997
G01 X9.6510 Y2.1821
G01 X9.6149 Y2.1857
G01 X9.5954 Y2.1865
G01 X8.9073 Y2.1865
G01 X8.8916 Y2.1859
G01 X8.8784 Y2.1865
G01 X8.8313 Y2.1865
G01 X8.8210 Y2.1860
G01 X8.7820 Y2.1809
G01 X8.7745 Y2.1792
G01 X7.2241 Y1.7729
G01 X7.1973 Y1.7640
G01 X7.1666 Y1.7513
G01 X6.9510 Y1.6996
G01 X6.7300 Y1.6822
G01 X6.5090 Y1.6996
G01 X6.2934 Y1.7513
G01 X6.2623 Y1.7642
G01 X6.2340 Y1.7734
G01 X4.6856 Y2.1792
G01 X4.6755 Y2.1813
G01 X4.6390 Y2.1860
G01 X4.6288 Y2.1865
G01 X1.4517 Y2.1865
G01 X1.4322 Y2.1857
G01 X1.3960 Y2.1821
G01 X1.2179 Y2.1997
G01 X1.0467 Y2.2516
G01 X0.8888 Y2.3360
G01 X0.7505 Y2.4495
G01 X0.7275 Y2.4776
G01 X0.7143 Y2.4920
G01 X0.3329 Y2.8733
G01 X0.3201 Y2.8851
G01 X0.3101 Y2.8926
G01 X0.2992 Y2.8987
G01 X0.2314 Y2.9296
G01 X0.2197 Y2.9338
G01 X0.2076 Y2.9365
G01 X0.1953 Y2.9376
G01 X0.1878 Y2.9376
G01 X0.1804 Y2.9370
G01 X0.1088 Y2.9267
G01 X0.0966 Y2.9242
G01 X0.0872 Y2.9211
G01 X0.0781 Y2.9171
G01 X0.0695 Y2.9122
G01 X0.0614 Y2.9065
G01 X0.0029 Y2.8559
G01 X-0.0058 Y2.8470
G01 X-0.0118 Y2.8391
G01 X-0.0159 Y2.8329
G01 X-0.0194 Y2.8263
G01 X-0.0225 Y2.8195
G01 X-0.0250 Y2.8125
G01 X-0.0461 Y2.7408
G01 X-0.0481 Y2.7315
G01 X-0.0494 Y2.7197
G01 X-0.0494 Y0.1721
G01 X-0.0490 Y0.1650
G01 X-0.0477 Y0.1556
G01 X-0.0360 Y0.1018
G01 X-0.0341 Y0.0945
G01 X-0.0308 Y0.0851
G01 X-0.0253 Y0.0738
G01 X-0.0200 Y0.0654
G01 X-0.0138 Y0.0575
G00 Z2.0000
G00 X0.0239 Y0.0903
G01 F60.00
G01 Z-0.3172
G01 F80.00
G01 X0.0705 Y0.0365
G01 X0.0759 Y0.0314
G01 X0.0820 Y0.0272
G01 X0.0876 Y0.0243
G01 X0.0922 Y0.0226
G01 X0.1604 Y0.0026
G01 X0.1674 Y0.0010
G01 X0.1745 Y0.0005
G01 X19.9255 Y0.0005
G01 X19.9350 Y0.0014
G01 X19.9889 Y0.0132
G01 X19.9960 Y0.0155
G01 X20.0027 Y0.0188
G01 X20.0098 Y0.0239
G01 X20.0644 Y0.0714
G01 X20.0678 Y0.0750
G01 X20.0716 Y0.0799
G01 X20.0741 Y0.0842
G01 X20.0766 Y0.0899
G01 X20.0978 Y0.1616
G01 X20.0990 Y0.1674
G01 X20.0995 Y0.1745
G01 X20.0995 Y53.9255
G01 X20.0986 Y53.9350
G01 X20.0869 Y53.9889
G01 X20.0846 Y53.9960
G01 X20.0812 Y54.0027
G01 X20.0761 Y54.0098
G01 X20.0287 Y54.0644
G01 X20.0241 Y54.0686
G01 X20.0201 Y54.0716
G01 X20.0147 Y54.0747
G01 X20.0102 Y54.0766
G01 X19.9385 Y54.0978
G01 X19.9315 Y54.0992
G01 X19.9255 Y54.0995
G01 X10.7953 Y54.0995
G01 X10.7871 Y54.0986
G01 X10.7332 Y54.0869
G01 X10.7272 Y54.0850
G01 X10.7215 Y54.0825
G01 X10.7132 Y54.0769
G01 X10.6567 Y54.0278
G01 X10.6534 Y54.0241
G01 X10.6498 Y54.0191
G01 X10.6469 Y54.0136
G01 X10.6450 Y54.0090
G01 X10.6242 Y53.9385
G01 X10.6230 Y53.9326
G01 X10.6225 Y53.9267
G01 X10.6225 Y45.3885
G01 X10.6234 Y45.3791
G01 X10.6355 Y45.3240
G01 X10.6390 Y45.3146
G01 X10.6444 Y45.3062
G01 X10.6925 Y45.2505
G01 X10.6979 Y45.2454
G01 X10.7040 Y45.2412
G01 X10.7084 Y45.2389
G01 X10.7142 Y45.2366
G01 X10.7824 Y45.2166
G01 X10.7894 Y45.2150
G01 X10.7953 Y45.2145
G01 X17.3974 Y45.2145
G01 X17.5350 Y45.1947
G01 X17.5952 Y45.1771
G01 X17.7184 Y45.1208
G01 X17.8207 Y45.0322
G01 X17.8618 Y44.9848
G01 X17.9355 Y44.8701
G01 X17.9673 Y44.7744
G01 X17.9774 Y44.7282
G01 X17.9885 Y44.6243
G01 X17.9885 Y24.2005
G01 X17.9888 Y24.1954
G01 X17.9899 Y24.1890
G01 X18.0033 Y24.1323
G01 X18.0063 Y24.1239
G01 X18.1907 Y23.7551
G01 X18.2292 Y23.6489
G01 X18.2410 Y23.5991
G01 X18.2486 Y23.5330
G01 X18.2486 Y3.5069
G01 X18.2342 Y3.4067
G01 X18.2166 Y3.3465
G01 X18.1594 Y3.2213
G01 X18.1310 Y3.1819
G01 X17.7326 Y2.7835
G01 X17.6515 Y2.7228
G01 X17.5965 Y2.6928
G01 X17.4675 Y2.6447
G01 X17.4195 Y2.6369
G01 X17.3957 Y2.6343
G01 X17.3435 Y2.6315
G01 X17.2476 Y2.6315
G01 X17.1100 Y2.6513
G01 X17.0719 Y2.6625
G01 X17.0657 Y2.6639
G01 X17.0182 Y2.6690
G01 X17.0121 Y2.6692
G01 X17.0048 Y2.6684
G01 X16.9966 Y2.6661
G01 X16.9311 Y2.6417
G01 X16.9246 Y2.6387
G01 X16.9186 Y2.6348
G01 X16.8420 Y2.5775
G01 X16.7176 Y2.5311
G01 X16.6660 Y2.5255
G01 X14.5741 Y2.5255
G01 X14.5224 Y2.5311
G01 X14.3980 Y2.5775
G01 X14.2925 Y2.6565
G01 X14.2113 Y2.7649
G01 X14.2063 Y2.7738
G01 X14.2020 Y2.7798
G01 X14.1464 Y2.8335
G01 X14.1394 Y2.8386
G01 X14.1305 Y2.8429
G01 X14.1233 Y2.8449
G01 X14.0523 Y2.8589
G01 X14.0424 Y2.8593
G01 X14.0362 Y2.8586
G01 X14.0314 Y2.8575
G01 X13.9617 Y2.8303
G01 X13.9553 Y2.8272
G01 X13.9493 Y2.8232
G01 X13.8804 Y2.7695
G01 X13.8804 Y3.3054
G01 X13.8932 Y3.3198
G01 X13.9544 Y3.4027
G01 X14.0060 Y3.4891
G01 X14.0510 Y3.5845
G01 X14.0848 Y3.6792
G01 X14.1098 Y3.7792
G01 X14.1250 Y3.8811
G01 X14.1300 Y3.9853
G01 X14.1250 Y4.0869
G01 X14.1098 Y4.1889
G01 X14.0848 Y4.2888
G01 X14.0510 Y4.3836
G01 X14.0060 Y4.4790
G01 X13.9544 Y4.5653
G01 X13.8932 Y4.6482
G01 X13.8804 Y4.6627
G01 X13.8804 Y5.3982
G01 X13.8767 Y5.4742
G01 X13.8645 Y5.5568
G01 X13.8459 Y5.6306
G01 X13.8195 Y5.7045
G01 X13.7859 Y5.7755
G01 X13.7456 Y5.8428
G01 X13.6987 Y5.9060
G01 X13.6468 Y5.9633
G01 X12.4083 Y7.2018
G01 X12.3510 Y7.2537
G01 X12.2899 Y7.2991
G01 X12.2205 Y7.3409
G01 X12.1472 Y7.3754
G01 X12.0756 Y7.4009
G01 X12.0006 Y7.4198
G01 X11.9217 Y7.4315
G01 X11.8432 Y7.4354
G01 X7.7300 Y7.4354
G01 X7.6516 Y7.4315
G01 X7.5763 Y7.4204
G01 X7.4977 Y7.4009
G01 X7.4215 Y7.3735
G01 X7.3527 Y7.3409
G01 X7.2874 Y7.3018
G01 X7.2232 Y7.2545
G01 X7.1641 Y7.2010
G01 X6.6440 Y6.6809
G01 X6.6247 Y6.6797
G01 X6.5228 Y6.6643
G01 X6.4252 Y6.6398
G01 X6.3293 Y6.6056
G01 X6.2340 Y6.5605
G01 X6.1477 Y6.5087
G01 X6.0992 Y6.4729
G01 X3.4717 Y6.4729
G01 X3.4582 Y6.4850
G01 X3.3764 Y6.5456
G01 X3.2880 Y6.5985
G01 X3.1948 Y6.6426
G01 X3.0955 Y6.6780
G01 X2.9979 Y6.7023
G01 X2.8984 Y6.7172
G01 X2.7955 Y6.7225
G01 X2.6901 Y6.7175
G01 X2.5894 Y6.7026
G01 X2.4882 Y6.6773
G01 X2.3935 Y6.6435
G01 X2.2959 Y6.5973
G01 X2.2097 Y6.5456
G01 X2.1269 Y6.4842
G01 X2.0506 Y6.4150
G01 X1.9814 Y6.3386
G01 X1.9200 Y6.2559
G01 X1.8670 Y6.1675
G01 X1.8230 Y6.0743
G01 X1.7890 Y5.9797
G01 X1.7632 Y5.8774
G01 X1.7484 Y5.7779
G01 X1.7431 Y5.6701
G01 X1.7481 Y5.5696
G01 X1.7632 Y5.4677
G01 X1.7882 Y5.3678
G01 X1.8230 Y5.2707
G01 X1.8670 Y5.1776
G01 X1.9200 Y5.0892
G01 X1.9814 Y5.0064
G01 X2.0489 Y4.9318
G01 X2.1269 Y4.8609
G01 X2.2077 Y4.8009
G01 X2.3003 Y4.7454
G01 X2.3912 Y4.7024
G01 X2.4882 Y4.6677
G01 X2.5882 Y4.6427
G01 X2.6901 Y4.6276
G01 X2.7930 Y4.6225
G01 X2.8959 Y4.6276
G01 X2.9979 Y4.6427
G01 X3.0977 Y4.6677
G01 X3.1948 Y4.7025
G01 X3.2880 Y4.7465
G01 X3.3764 Y4.7995
G01 X3.4582 Y4.8601
G01 X3.4717 Y4.8721
G01 X6.0100 Y4.8721
G01 X6.0639 Y4.8234
G01 X6.1447 Y4.7634
G01 X6.2329 Y4.7102
G01 X6.3282 Y4.6649
G01 X6.4241 Y4.6306
G01 X6.5252 Y4.6052
G01 X6.6271 Y4.5901
G01 X6.7300 Y4.5850
G01 X6.8354 Y4.5904
G01 X6.9349 Y4.6052
G01 X7.0348 Y4.6302
G01 X7.1318 Y4.6650
G01 X7.2228 Y4.7079
G01 X7.3154 Y4.7634
G01 X7.3961 Y4.8234
G01 X7.4725 Y4.8926
G01 X7.5417 Y4.9689
G01 X7.6031 Y5.0517
G01 X7.6560 Y5.1401
G01 X7.6991 Y5.2310
G01 X7.7348 Y5.3302
G01 X7.7593 Y5.4278
G01 X7.7747 Y5.5297
G01 X7.7759 Y5.5490
G01 X8.0616 Y5.8346
G01 X11.5117 Y5.8346
G01 X12.2796 Y5.0667
G01 X12.2796 Y4.6627
G01 X12.2669 Y4.6482
G01 X12.2057 Y4.5653
G01 X12.1540 Y4.4790
G01 X12.1099 Y4.3858
G01 X12.0752 Y4.2888
G01 X12.0507 Y4.1913
G01 X12.0350 Y4.0857
G01 X12.0300 Y3.9840
G01 X12.0349 Y3.8836
G01 X12.0502 Y3.7792
G01 X12.0752 Y3.6793
G01 X12.1091 Y3.5845
G01 X12.1529 Y3.4913
G01 X12.1565 Y3.4848
G01 X11.8350 Y3.1633
G01 X11.7961 Y3.1595
G01 X11.7890 Y3.1580
G01 X11.7834 Y3.1559
G01 X11.7759 Y3.1519
G01 X11.7145 Y3.1116
G01 X11.7108 Y3.1086
G01 X11.7067 Y3.1043
G01 X11.5745 Y2.9495
G01 X11.4000 Y2.8004
G01 X11.2042 Y2.6805
G01 X11.1360 Y2.6522
G01 X11.0498 Y2.6154
G01 X11.0330 Y2.6095
G01 X10.9921 Y2.5926
G01 X10.7689 Y2.5390
G01 X10.7154 Y2.5348
G01 X10.6924 Y2.5313
G01 X10.4243 Y2.4694
G01 X10.4072 Y2.4644
G01 X10.4026 Y2.4624
G01 X10.3983 Y2.4599
G01 X10.3531 Y2.4291
G01 X10.3473 Y2.4263
G01 X10.3412 Y2.4222
G01 X10.3339 Y2.4155
G01 X10.1861 Y2.2942
G01 X10.0196 Y2.2052
G01 X9.8389 Y2.1504
G01 X9.6510 Y2.1319
G01 X9.6112 Y2.1358
G01 X9.5954 Y2.1365
G01 X8.9073 Y2.1365
G01 X8.8919 Y2.1358
G01 X8.8784 Y2.1365
G01 X8.8313 Y2.1365
G01 X8.8249 Y2.1361
G01 X8.7909 Y2.1317
G01 X7.2368 Y1.7245
G01 X7.2153 Y1.7174
G01 X7.1821 Y1.7036
G01 X6.9589 Y1.6500
G01 X6.7300 Y1.6320
G01 X6.5012 Y1.6500
G01 X6.2779 Y1.7036
G01 X6.2443 Y1.7175
G01 X6.2210 Y1.7251
G01 X4.6729 Y2.1308
G01 X4.6666 Y2.1321
G01 X4.6339 Y2.1363
G01 X4.6288 Y2.1365
G01 X1.4517 Y2.1365
G01 X1.4358 Y2.1358
G01 X1.3960 Y2.1319
G01 X1.2081 Y2.1504
G01 X1.0274 Y2.2052
G01 X0.8609 Y2.2942
G01 X0.7150 Y2.4140
G01 X0.6896 Y2.4449
G01 X0.6789 Y2.4566
G01 X0.2976 Y2.8380
G01 X0.2879 Y2.8469
G01 X0.2829 Y2.8506
G01 X0.2765 Y2.8541
G01 X0.2118 Y2.8837
G01 X0.2060 Y2.8857
G01 X0.1999 Y2.8871
G01 X0.1937 Y2.8876
G01 X0.1863 Y2.8873
G01 X0.1159 Y2.8772
G01 X0.1098 Y2.8760
G01 X0.1051 Y2.8744
G01 X0.0995 Y2.8718
G01 X0.0912 Y2.8663
G01 X0.0365 Y2.8189
G01 X0.0322 Y2.8145
G01 X0.0292 Y2.8105
G01 X0.0254 Y2.8041
G01 X0.0222 Y2.7961
G01 X0.0022 Y2.7279
G01 X0.0010 Y2.7220
G01 X0.0005 Y2.7161
G01 X0.0005 Y0.1745
G01 X0.0014 Y0.1651
G01 X0.0135 Y0.1100
G01 X0.0155 Y0.1040
G01 X0.0176 Y0.0995
G01 X0.0202 Y0.0952
G01 X0.0239 Y0.0903
G00 Z2.0000
G00 X0.1381 Y3.5908
G01 F60.00
G01 Z-0.3172
G01 F80.00
G01 X0.1414 Y3.5295
G01 X0.1501 Y3.4687
G01 X0.1522 Y3.4567
G01 X0.1549 Y3.4447
G01 X0.1701 Y3.3852
G01 X0.1905 Y3.3274
G01 X0.1949 Y3.3159
G01 X0.1999 Y3.3047
G01 X0.2264 Y3.2494
G01 X0.2324 Y3.2387
G01 X0.2642 Y3.1862
G01 X0.3005 Y3.1367
G01 X0.3081 Y3.1271
G01 X0.3161 Y3.1178
G01 X0.3532 Y3.0769
G01 X0.8655 Y2.5645
G01 X0.9108 Y2.5231
G01 X0.9201 Y2.5151
G01 X0.9297 Y2.5075
G01 X0.9792 Y2.4712
G01 X1.0317 Y2.4394
G01 X1.0424 Y2.4334
G01 X1.0533 Y2.4278
G01 X1.1089 Y2.4019
G01 X1.1666 Y2.3809
G01 X1.1782 Y2.3771
G01 X1.1901 Y2.3738
G01 X1.2497 Y2.3592
G01 X1.2617 Y2.3571
G01 X1.3164 Y2.3491
G01 X1.3347 Y2.3475
G01 X1.3960 Y2.3448
G01 X4.6988 Y2.3448
G01 X6.2734 Y1.9321
G01 X6.3555 Y1.9027
G01 X6.3672 Y1.8988
G01 X6.3790 Y1.8956
G01 X6.4742 Y1.8717
G01 X6.4862 Y1.8690
G01 X6.4983 Y1.8669
G01 X6.5953 Y1.8525
G01 X6.6075 Y1.8510
G01 X6.6197 Y1.8501
G01 X6.7178 Y1.8453
G01 X6.7300 Y1.8450
G01 X6.7423 Y1.8453
G01 X6.8403 Y1.8501
G01 X6.8525 Y1.8510
G01 X6.8647 Y1.8525
G01 X6.9618 Y1.8669
G01 X6.9739 Y1.8690
G01 X6.9859 Y1.8717
G01 X7.0924 Y1.8987
G01 X7.1036 Y1.9024
G01 X7.1867 Y1.9321
G01 X8.7613 Y2.3448
G01 X9.6572 Y2.3449
G01 X9.7123 Y2.3475
G01 X9.7246 Y2.3484
G01 X9.7367 Y2.3499
G01 X9.7914 Y2.3581
G01 X9.8094 Y2.3619
G01 X9.8688 Y2.3771
G01 X9.9267 Y2.3975
G01 X9.9381 Y2.4019
G01 X9.9494 Y2.4069
G01 X10.0047 Y2.4334
G01 X10.0575 Y2.4647
G01 X10.0678 Y2.4712
G01 X10.0779 Y2.4783
G01 X10.1222 Y2.5112
G01 X10.1363 Y2.5231
G01 X10.1771 Y2.5602
G01 X10.2698 Y2.6528
G01 X10.6419 Y2.7387
G01 X10.6564 Y2.7395
G01 X10.6747 Y2.7415
G01 X10.7718 Y2.7559
G01 X10.7839 Y2.7580
G01 X10.7959 Y2.7607
G01 X10.9024 Y2.7877
G01 X10.9136 Y2.7914
G01 X11.0069 Y2.8248
G01 X11.0184 Y2.8292
G01 X11.0296 Y2.8341
G01 X11.1183 Y2.8761
G01 X11.1293 Y2.8816
G01 X11.1399 Y2.8877
G01 X11.2241 Y2.9381
G01 X11.2345 Y2.9447
G01 X11.2445 Y2.9518
G01 X11.3233 Y3.0102
G01 X11.3330 Y3.0178
G01 X11.3423 Y3.0258
G01 X11.4150 Y3.0917
G01 X11.4239 Y3.1001
G01 X11.4324 Y3.1090
G01 X11.4983 Y3.1817
G01 X11.5063 Y3.1910
G01 X11.5138 Y3.2007
G01 X11.5723 Y3.2795
G01 X11.5794 Y3.2896
G01 X11.5859 Y3.2999
G01 X11.6364 Y3.3841
G01 X11.6424 Y3.3948
G01 X11.6479 Y3.4057
G01 X11.6925 Y3.5001
G01 X11.6993 Y3.5171
G01 X11.7324 Y3.6095
G01 X11.7362 Y3.6212
G01 X11.7395 Y3.6330
G01 X11.7633 Y3.7282
G01 X11.7660 Y3.7402
G01 X11.7681 Y3.7523
G01 X11.7825 Y3.8493
G01 X11.7840 Y3.8615
G01 X11.7849 Y3.8737
G01 X11.7897 Y3.9718
G01 X11.7900 Y3.9840
G01 X11.7897 Y3.9963
G01 X11.7849 Y4.0943
G01 X11.7840 Y4.1065
G01 X11.7825 Y4.1187
G01 X11.7681 Y4.2158
G01 X11.7660 Y4.2279
G01 X11.7633 Y4.2399
G01 X11.7395 Y4.3351
G01 X11.7362 Y4.3469
G01 X11.7324 Y4.3585
G01 X11.6993 Y4.4509
G01 X11.6949 Y4.4624
G01 X11.6899 Y4.4736
G01 X11.6479 Y4.5623
G01 X11.6424 Y4.5733
G01 X11.6364 Y4.5839
G01 X11.5859 Y4.6681
G01 X11.5794 Y4.6785
G01 X11.5723 Y4.6885
G01 X11.5138 Y4.7673
G01 X11.5063 Y4.7770
G01 X11.4983 Y4.7863
G01 X11.4324 Y4.8590
G01 X11.4239 Y4.8679
G01 X11.4150 Y4.8764
G01 X11.3423 Y4.9423
G01 X11.3330 Y4.9503
G01 X11.3233 Y4.9578
G01 X11.2445 Y5.0163
G01 X11.2345 Y5.0234
G01 X11.2241 Y5.0299
G01 X11.1399 Y5.0804
G01 X11.1293 Y5.0864
G01 X11.1183 Y5.0919
G01 X11.0240 Y5.1365
G01 X11.0069 Y5.1433
G01 X10.9145 Y5.1764
G01 X10.9029 Y5.1802
G01 X10.8911 Y5.1835
G01 X10.7959 Y5.2073
G01 X10.7839 Y5.2100
G01 X10.7718 Y5.2121
G01 X10.6747 Y5.2265
G01 X10.6625 Y5.2280
G01 X10.6503 Y5.2289
G01 X10.5523 Y5.2337
G01 X10.5400 Y5.2340
G01 X10.5278 Y5.2337
G01 X10.4297 Y5.2289
G01 X10.4175 Y5.2280
G01 X10.4053 Y5.2265
G01 X10.3083 Y5.2121
G01 X10.2962 Y5.2100
G01 X10.2842 Y5.2073
G01 X10.1777 Y5.1803
G01 X10.1655 Y5.1764
G01 X10.0731 Y5.1433
G01 X10.0617 Y5.1389
G01 X10.0505 Y5.1339
G01 X9.9617 Y5.0919
G01 X9.9454 Y5.0835
G01 X9.8559 Y5.0299
G01 X9.8456 Y5.0234
G01 X9.8355 Y5.0163
G01 X9.7567 Y4.9578
G01 X9.7470 Y4.9503
G01 X9.7377 Y4.9423
G01 X9.6650 Y4.8764
G01 X9.6519 Y4.8635
G01 X9.5777 Y4.7817
G01 X9.5662 Y4.7673
G01 X9.5377 Y4.7289
G01 X8.7923 Y3.8453
G01 X8.7613 Y3.8453
G01 X7.1866 Y4.2580
G01 X7.1045 Y4.2874
G01 X7.0929 Y4.2912
G01 X7.0811 Y4.2945
G01 X6.9859 Y4.3183
G01 X6.9739 Y4.3210
G01 X6.9618 Y4.3231
G01 X6.8647 Y4.3375
G01 X6.8525 Y4.3390
G01 X6.8403 Y4.3399
G01 X6.7423 Y4.3447
G01 X6.7300 Y4.3450
G01 X6.7178 Y4.3447
G01 X6.6197 Y4.3399
G01 X6.6075 Y4.3390
G01 X6.5953 Y4.3375
G01 X6.4983 Y4.3231
G01 X6.4862 Y4.3210
G01 X6.4742 Y4.3183
G01 X6.3790 Y4.2945
G01 X6.3672 Y4.2912
G01 X6.3555 Y4.2874
G01 X6.2734 Y4.2580
G01 X4.6988 Y3.8453
G01 X1.7068 Y3.8453
G01 X1.6383 Y3.9138
G01 X1.6383 Y5.1939
G01 X1.6431 Y5.1830
G01 X1.6851 Y5.0942
G01 X1.6906 Y5.0833
G01 X1.6967 Y5.0726
G01 X1.7471 Y4.9884
G01 X1.7537 Y4.9781
G01 X1.7608 Y4.9680
G01 X1.8192 Y4.8892
G01 X1.8268 Y4.8795
G01 X1.8348 Y4.8702
G01 X1.9007 Y4.7975
G01 X1.9091 Y4.7886
G01 X1.9180 Y4.7802
G01 X1.9907 Y4.7143
G01 X2.0000 Y4.7063
G01 X2.0097 Y4.6987
G01 X2.0885 Y4.6403
G01 X2.0986 Y4.6332
G01 X2.1089 Y4.6266
G01 X2.1931 Y4.5762
G01 X2.2038 Y4.5701
G01 X2.2147 Y4.5646
G01 X2.3035 Y4.5226
G01 X2.3148 Y4.5176
G01 X2.3261 Y4.5133
G01 X2.4185 Y4.4802
G01 X2.4302 Y4.4763
G01 X2.4420 Y4.4731
G01 X2.5372 Y4.4492
G01 X2.5492 Y4.4465
G01 X2.5613 Y4.4444
G01 X2.6583 Y4.4300
G01 X2.6705 Y4.4285
G01 X2.6827 Y4.4276
G01 X2.7808 Y4.4228
G01 X2.7930 Y4.4225
G01 X2.8053 Y4.4228
G01 X2.9033 Y4.4276
G01 X2.9155 Y4.4285
G01 X2.9277 Y4.4300
G01 X3.0248 Y4.4444
G01 X3.0429 Y4.4478
G01 X3.1441 Y4.4731
G01 X3.1554 Y4.4762
G01 X3.1666 Y4.4799
G01 X3.2599 Y4.5133
G01 X3.2770 Y4.5201
G01 X3.3713 Y4.5646
G01 X3.3876 Y4.5731
G01 X3.4823 Y4.6298
G01 X3.4975 Y4.6403
G01 X3.5405 Y4.6721
G01 X5.9330 Y4.6721
G01 X5.9467 Y4.6612
G01 X6.0255 Y4.6028
G01 X6.0356 Y4.5957
G01 X6.0459 Y4.5891
G01 X6.1301 Y4.5387
G01 X6.1408 Y4.5326
G01 X6.1517 Y4.5271
G01 X6.2405 Y4.4851
G01 X6.2518 Y4.4801
G01 X6.2631 Y4.4758
G01 X6.3555 Y4.4427
G01 X6.3672 Y4.4388
G01 X6.3790 Y4.4356
G01 X6.4742 Y4.4117
G01 X6.4862 Y4.4090
G01 X6.4983 Y4.4069
G01 X6.5953 Y4.3925
G01 X6.6075 Y4.3910
G01 X6.6197 Y4.3901
G01 X6.7178 Y4.3853
G01 X6.7300 Y4.3850
G01 X6.7423 Y4.3853
G01 X6.8403 Y4.3901
G01 X6.8525 Y4.3910
G01 X6.8647 Y4.3925
G01 X6.9618 Y4.4069
G01 X6.9739 Y4.4090
G01 X6.9859 Y4.4117
G01 X7.0811 Y4.4356
G01 X7.0929 Y4.4388
G01 X7.1045 Y4.4427
G01 X7.1969 Y4.4758
G01 X7.2084 Y4.4802
G01 X7.2196 Y4.4851
G01 X7.3083 Y4.5271
G01 X7.3193 Y4.5326
G01 X7.3299 Y4.5387
G01 X7.4141 Y4.5891
G01 X7.4245 Y4.5957
G01 X7.4345 Y4.6028
G01 X7.5133 Y4.6612
G01 X7.5230 Y4.6688
G01 X7.5323 Y4.6768
G01 X7.6050 Y4.7427
G01 X7.6139 Y4.7511
G01 X7.6224 Y4.7600
G01 X7.6883 Y4.8327
G01 X7.6963 Y4.8420
G01 X7.7038 Y4.8517
G01 X7.7623 Y4.9305
G01 X7.7727 Y4.9457
G01 X7.8264 Y5.0351
G01 X7.8324 Y5.0458
G01 X7.8379 Y5.0567
G01 X7.8799 Y5.1455
G01 X7.8872 Y5.1624
G01 X7.9224 Y5.2605
G01 X7.9279 Y5.2781
G01 X7.9547 Y5.3852
G01 X7.9581 Y5.4033
G01 X7.9660 Y5.4562
G01 X8.1444 Y5.6346
G01 X11.4289 Y5.6346
G01 X12.0796 Y4.9839
G01 X12.0796 Y4.7315
G01 X12.0478 Y4.6885
G01 X12.0373 Y4.6733
G01 X11.9806 Y4.5786
G01 X11.9721 Y4.5623
G01 X11.9301 Y4.4736
G01 X11.9228 Y4.4565
G01 X11.8877 Y4.3585
G01 X11.8838 Y4.3469
G01 X11.8806 Y4.3351
G01 X11.8567 Y4.2399
G01 X11.8540 Y4.2279
G01 X11.8519 Y4.2158
G01 X11.8367 Y4.1126
G01 X11.8351 Y4.0943
G01 X11.8303 Y3.9963
G01 X11.8300 Y3.9840
G01 X11.8303 Y3.9718
G01 X11.8351 Y3.8737
G01 X11.8360 Y3.8615
G01 X11.8375 Y3.8493
G01 X11.8519 Y3.7523
G01 X11.8540 Y3.7402
G01 X11.8567 Y3.7282
G01 X11.8837 Y3.6217
G01 X11.8874 Y3.6105
G01 X11.9169 Y3.5280
G01 X11.7410 Y3.3521
G01 X11.7264 Y3.3479
G01 X11.7094 Y3.3417
G01 X11.6928 Y3.3343
G01 X11.6769 Y3.3257
G01 X11.6666 Y3.3194
G01 X11.6031 Y3.2779
G01 X11.5888 Y3.2672
G01 X11.5797 Y3.2596
G01 X11.5667 Y3.2473
G01 X11.5546 Y3.2342
G01 X11.4327 Y3.0914
G01 X11.2820 Y2.9627
G01 X11.1131 Y2.8592
G01 X11.0585 Y2.8366
G01 X10.9760 Y2.8015
G01 X10.9603 Y2.7959
G01 X10.9301 Y2.7834
G01 X10.7375 Y2.7372
G01 X10.6887 Y2.7330
G01 X10.6583 Y2.7284
G01 X10.6462 Y2.7259
G01 X10.3793 Y2.6643
G01 X10.3530 Y2.6571
G01 X10.3360 Y2.6513
G01 X10.3250 Y2.6468
G01 X10.3141 Y2.6417
G01 X10.2984 Y2.6332
G01 X10.2348 Y2.5918
G01 X10.2243 Y2.5845
G01 X10.2142 Y2.5768
G01 X10.2004 Y2.5647
G01 X10.0745 Y2.4613
G01 X9.9427 Y2.3909
G01 X9.7997 Y2.3475
G01 X9.6510 Y2.3329
G01 X9.6259 Y2.3353
G01 X9.5954 Y2.3365
G01 X8.9073 Y2.3365
G01 X8.8925 Y2.3361
G01 X8.8784 Y2.3365
G01 X8.8313 Y2.3365
G01 X8.8184 Y2.3362
G01 X8.8057 Y2.3352
G01 X8.7615 Y2.3295
G01 X8.7489 Y2.3272
G01 X8.7364 Y2.3243
G01 X7.1860 Y1.9180
G01 X7.1751 Y1.9148
G01 X7.1483 Y1.9058
G01 X7.1201 Y1.8944
G01 X6.9275 Y1.8482
G01 X6.7300 Y1.8326
G01 X6.5325 Y1.8482
G01 X6.3399 Y1.8944
G01 X6.3100 Y1.9064
G01 X6.2860 Y1.9144
G01 X6.2730 Y1.9182
G01 X4.7236 Y2.3243
G01 X4.7111 Y2.3272
G01 X4.6985 Y2.3295
G01 X4.6544 Y2.3352
G01 X4.6416 Y2.3362
G01 X4.6288 Y2.3365
G01 X1.4517 Y2.3365
G01 X1.4211 Y2.3353
G01 X1.3960 Y2.3329
G01 X1.2473 Y2.3475
G01 X1.1044 Y2.3909
G01 X0.9726 Y2.4613
G01 X0.8571 Y2.5561
G01 X0.8410 Y2.5755
G01 X0.8203 Y2.5980
G01 X0.4390 Y2.9794
G01 X0.4215 Y2.9958
G01 X0.4119 Y3.0039
G01 X0.3968 Y3.0150
G01 X0.3810 Y3.0250
G01 X0.3700 Y3.0310
G01 X0.3596 Y3.0360
G01 X0.2960 Y3.0651
G01 X0.2788 Y3.0722
G01 X0.2611 Y3.0780
G01 X0.2430 Y3.0824
G01 X0.2247 Y3.0855
G01 X0.2123 Y3.0869
G01 X0.1937 Y3.0877
G01 X0.1813 Y3.0874
G01 X0.1689 Y3.0866
G01 X0.1566 Y3.0851
G01 X0.0813 Y3.0742
G01 X0.0691 Y3.0718
G01 X0.0511 Y3.0672
G01 X0.0335 Y3.0611
G01 X0.0163 Y3.0538
G01 X-0.0002 Y3.0453
G01 X-0.0108 Y3.0389
G01 X-0.0262 Y3.0283
G01 X-0.0407 Y3.0167
G01 X-0.0935 Y2.9709
G01 X-0.1071 Y2.9582
G01 X-0.1156 Y2.9492
G01 X-0.1237 Y2.9397
G01 X-0.1313 Y2.9299
G01 X-0.1384 Y2.9197
G01 X-0.1481 Y2.9038
G01 X-0.1565 Y2.8872
G01 X-0.1615 Y2.8758
G01 X-0.1678 Y2.8583
G01 X-0.1893 Y2.7854
G01 X-0.1924 Y2.7739
G01 X-0.1950 Y2.7622
G01 X-0.1969 Y2.7505
G01 X-0.1983 Y2.7387
G01 X-0.1992 Y2.7268
G01 X-0.1995 Y2.7149
G01 X-0.1994 Y0.1686
G01 X-0.1983 Y0.1508
G01 X-0.1960 Y0.1331
G01 X-0.1826 Y0.0699
G01 X-0.1796 Y0.0577
G01 X-0.1760 Y0.0458
G01 X-0.1696 Y0.0282
G01 X-0.1646 Y0.0167
G01 X-0.1590 Y0.0056
G01 X-0.1528 Y-0.0053
G01 X-0.1461 Y-0.0159
G01 X-0.1389 Y-0.0261
G01 X-0.1272 Y-0.0407
G01 X-0.0815 Y-0.0935
G01 X-0.0687 Y-0.1071
G01 X-0.0551 Y-0.1197
G01 X-0.0405 Y-0.1313
G01 X-0.0251 Y-0.1418
G01 X-0.0144 Y-0.1481
G01 X-0.0034 Y-0.1539
G01 X0.0079 Y-0.1591
G01 X0.0194 Y-0.1638
G01 X0.0371 Y-0.1697
G01 X0.1041 Y-0.1893
G01 X0.1214 Y-0.1938
G01 X0.1389 Y-0.1969
G01 X0.1567 Y-0.1988
G01 X0.1745 Y-0.1995
G01 X19.9255 Y-0.1995
G01 X19.9374 Y-0.1992
G01 X19.9493 Y-0.1983
G01 X19.9670 Y-0.1960
G01 X20.0302 Y-0.1826
G01 X20.0423 Y-0.1796
G01 X20.0602 Y-0.1740
G01 X20.0776 Y-0.1671
G01 X20.0945 Y-0.1590
G01 X20.1107 Y-0.1495
G01 X20.1261 Y-0.1389
G01 X20.1408 Y-0.1272
G01 X20.1982 Y-0.0773
G01 X20.2115 Y-0.0643
G01 X20.2198 Y-0.0551
G01 X20.2276 Y-0.0454
G01 X20.2350 Y-0.0354
G01 X20.2418 Y-0.0251
G01 X20.2481 Y-0.0144
G01 X20.2539 Y-0.0034
G01 X20.2615 Y0.0136
G01 X20.2659 Y0.0252
G01 X20.2697 Y0.0371
G01 X20.2925 Y0.1156
G01 X20.2961 Y0.1331
G01 X20.2978 Y0.1448
G01 X20.2989 Y0.1567
G01 X20.2995 Y0.1745
G01 X20.2995 Y53.9255
G01 X20.2989 Y53.9434
G01 X20.2978 Y53.9552
G01 X20.2961 Y53.9670
G01 X20.2826 Y54.0302
G01 X20.2796 Y54.0423
G01 X20.2741 Y54.0602
G01 X20.2672 Y54.0776
G01 X20.2590 Y54.0945
G01 X20.2496 Y54.1107
G01 X20.2390 Y54.1261
G01 X20.2273 Y54.1408
G01 X20.1774 Y54.1982
G01 X20.1643 Y54.2115
G01 X20.1551 Y54.2198
G01 X20.1455 Y54.2276
G01 X20.1355 Y54.2350
G01 X20.1251 Y54.2418
G01 X20.1144 Y54.2481
G01 X20.1034 Y54.2539
G01 X20.0864 Y54.2615
G01 X20.0748 Y54.2659
G01 X20.0630 Y54.2697
G01 X19.9845 Y54.2925
G01 X19.9728 Y54.2950
G01 X19.9552 Y54.2978
G01 X19.9434 Y54.2989
G01 X19.9255 Y54.2995
G01 X10.7906 Y54.2995
G01 X10.7728 Y54.2984
G01 X10.7551 Y54.2961
G01 X10.6919 Y54.2826
G01 X10.6797 Y54.2796
G01 X10.6678 Y54.2761
G01 X10.6560 Y54.2719
G01 X10.6387 Y54.2646
G01 X10.6276 Y54.2590
G01 X10.6114 Y54.2496
G01 X10.6010 Y54.2427
G01 X10.5909 Y54.2352
G01 X10.5813 Y54.2273
G01 X10.5285 Y54.1815
G01 X10.5149 Y54.1688
G01 X10.5064 Y54.1598
G01 X10.4983 Y54.1503
G01 X10.4907 Y54.1405
G01 X10.4836 Y54.1303
G01 X10.4770 Y54.1198
G01 X10.4710 Y54.1090
G01 X10.4655 Y54.0978
G01 X10.4605 Y54.0864
G01 X10.4561 Y54.0748
G01 X10.4523 Y54.0630
G01 X10.4296 Y53.9845
G01 X10.4270 Y53.9728
G01 X10.4251 Y53.9611
G01 X10.4237 Y53.9493
G01 X10.4228 Y53.9374
G01 X10.4225 Y53.9255
G01 X10.4225 Y45.3885
G01 X10.4228 Y45.3766
G01 X10.4237 Y45.3648
G01 X10.4251 Y45.3529
G01 X10.4270 Y45.3412
G01 X10.4408 Y45.2778
G01 X10.4460 Y45.2598
G01 X10.4524 Y45.2422
G01 X10.4574 Y45.2307
G01 X10.4630 Y45.2196
G01 X10.4725 Y45.2034
G01 X10.4794 Y45.1930
G01 X10.4869 Y45.1829
G01 X10.4948 Y45.1733
G01 X10.5405 Y45.1205
G01 X10.5489 Y45.1113
G01 X10.5577 Y45.1026
G01 X10.5717 Y45.0903
G01 X10.5815 Y45.0827
G01 X10.5969 Y45.0722
G01 X10.6076 Y45.0659
G01 X10.6242 Y45.0575
G01 X10.6356 Y45.0525
G01 X10.6472 Y45.0481
G01 X10.6591 Y45.0443
G01 X10.7318 Y45.0230
G01 X10.7434 Y45.0202
G01 X10.7609 Y45.0171
G01 X10.7728 Y45.0157
G01 X10.7906 Y45.0146
G01 X17.3831 Y45.0145
G01 X17.4924 Y44.9988
G01 X17.5251 Y44.9892
G01 X17.6091 Y44.9508
G01 X17.6789 Y44.8904
G01 X17.7012 Y44.8646
G01 X17.7536 Y44.7831
G01 X17.7741 Y44.7215
G01 X17.7797 Y44.6961
G01 X17.7885 Y44.6136
G01 X17.7885 Y24.2005
G01 X17.7889 Y24.1876
G01 X17.7899 Y24.1748
G01 X17.7915 Y24.1620
G01 X17.7938 Y24.1494
G01 X17.8099 Y24.0814
G01 X17.8135 Y24.0690
G01 X17.8177 Y24.0569
G01 X17.8225 Y24.0449
G01 X17.8280 Y24.0333
G01 X18.0066 Y23.6760
G01 X18.0372 Y23.5916
G01 X18.0436 Y23.5644
G01 X18.0486 Y23.5214
G01 X18.0486 Y3.5212
G01 X18.0383 Y3.4493
G01 X18.0287 Y3.4166
G01 X17.9856 Y3.3223
G01 X17.9782 Y3.3119
G01 X17.6013 Y2.9350
G01 X17.5431 Y2.8915
G01 X17.5132 Y2.8752
G01 X17.4161 Y2.8389
G01 X17.3928 Y2.8352
G01 X17.3797 Y2.8338
G01 X17.3382 Y2.8315
G01 X17.2619 Y2.8315
G01 X17.1526 Y2.8472
G01 X17.1160 Y2.8577
G01 X17.1035 Y2.8603
G01 X17.0909 Y2.8623
G01 X17.0408 Y2.8678
G01 X17.0225 Y2.8691
G01 X17.0103 Y2.8692
G01 X16.9981 Y2.8687
G01 X16.9799 Y2.8669
G01 X16.9678 Y2.8649
G01 X16.9559 Y2.8624
G01 X16.9382 Y2.8574
G01 X16.9267 Y2.8535
G01 X16.8502 Y2.8246
G01 X16.8394 Y2.8197
G01 X16.8288 Y2.8142
G01 X16.8185 Y2.8083
G01 X16.8085 Y2.8018
G01 X16.7452 Y2.7548
G01 X16.6713 Y2.7272
G01 X16.6553 Y2.7255
G01 X14.5848 Y2.7255
G01 X14.5688 Y2.7272
G01 X14.4949 Y2.7548
G01 X14.4354 Y2.7994
G01 X14.3793 Y2.8742
G01 X14.3726 Y2.8850
G01 X14.3656 Y2.8951
G01 X14.3581 Y2.9048
G01 X14.3501 Y2.9141
G01 X14.3373 Y2.9274
G01 X14.2825 Y2.9801
G01 X14.2683 Y2.9922
G01 X14.2584 Y2.9996
G01 X14.2428 Y3.0098
G01 X14.2265 Y3.0189
G01 X14.2096 Y3.0267
G01 X14.1921 Y3.0332
G01 X14.1802 Y3.0368
G01 X14.1682 Y3.0398
G01 X14.0936 Y3.0546
G01 X14.0804 Y3.0569
G01 X14.0804 Y3.2365
G01 X14.1123 Y3.2795
G01 X14.1227 Y3.2947
G01 X14.1795 Y3.3894
G01 X14.1879 Y3.4057
G01 X14.2325 Y3.5001
G01 X14.2393 Y3.5171
G01 X14.2724 Y3.6095
G01 X14.2762 Y3.6212
G01 X14.2795 Y3.6330
G01 X14.3047 Y3.7342
G01 X14.3081 Y3.7523
G01 X14.3225 Y3.8493
G01 X14.3240 Y3.8615
G01 X14.3249 Y3.8737
G01 X14.3297 Y3.9718
G01 X14.3300 Y3.9840
G01 X14.3297 Y3.9963
G01 X14.3249 Y4.0943
G01 X14.3240 Y4.1065
G01 X14.3225 Y4.1187
G01 X14.3081 Y4.2158
G01 X14.3060 Y4.2279
G01 X14.3033 Y4.2399
G01 X14.2795 Y4.3351
G01 X14.2762 Y4.3469
G01 X14.2724 Y4.3585
G01 X14.2372 Y4.4567
G01 X14.2299 Y4.4736
G01 X14.1879 Y4.5623
G01 X14.1795 Y4.5786
G01 X14.1227 Y4.6733
G01 X14.1123 Y4.6885
G01 X14.0804 Y4.7315
G01 X14.0804 Y5.3982
G01 X14.0801 Y5.4105
G01 X14.0765 Y5.4841
G01 X14.0756 Y5.4963
G01 X14.0741 Y5.5085
G01 X14.0633 Y5.5813
G01 X14.0612 Y5.5934
G01 X14.0585 Y5.6054
G01 X14.0406 Y5.6768
G01 X14.0373 Y5.6886
G01 X14.0335 Y5.7003
G01 X14.0087 Y5.7696
G01 X14.0043 Y5.7811
G01 X13.9993 Y5.7923
G01 X13.9678 Y5.8589
G01 X13.9623 Y5.8698
G01 X13.9562 Y5.8805
G01 X13.9184 Y5.9436
G01 X13.9121 Y5.9536
G01 X13.9053 Y5.9633
G01 X13.8609 Y6.0232
G01 X13.8533 Y6.0329
G01 X13.8453 Y6.0422
G01 X13.7959 Y6.0967
G01 X13.7874 Y6.1056
G01 X12.5506 Y7.3424
G01 X12.5417 Y7.3509
G01 X12.4872 Y7.4003
G01 X12.4779 Y7.4083
G01 X12.4682 Y7.4159
G01 X12.4090 Y7.4597
G01 X12.3990 Y7.4668
G01 X12.3886 Y7.4734
G01 X12.3202 Y7.5143
G01 X12.3039 Y7.5228
G01 X12.2373 Y7.5543
G01 X12.2261 Y7.5593
G01 X12.2146 Y7.5637
G01 X12.1453 Y7.5885
G01 X12.1336 Y7.5923
G01 X12.1218 Y7.5956
G01 X12.0504 Y7.6135
G01 X12.0384 Y7.6162
G01 X12.0263 Y7.6183
G01 X11.9535 Y7.6291
G01 X11.9413 Y7.6306
G01 X11.9291 Y7.6315
G01 X11.8555 Y7.6351
G01 X11.8432 Y7.6354
G01 X10.9483 Y7.6354
G01 X11.0179 Y7.6683
G01 X11.0288 Y7.6738
G01 X11.0395 Y7.6798
G01 X11.1126 Y7.7240
G01 X11.1230 Y7.7313
G01 X11.1822 Y7.7752
G01 X11.1919 Y7.7827
G01 X11.2012 Y7.7907
G01 X11.2557 Y7.8402
G01 X11.2646 Y7.8487
G01 X12.2677 Y8.8518
G01 X12.3213 Y8.9109
G01 X12.3293 Y8.9202
G01 X12.3369 Y8.9299
G01 X12.3807 Y8.9890
G01 X12.3878 Y8.9990
G01 X12.3944 Y9.0094
G01 X12.4322 Y9.0726
G01 X12.4383 Y9.0832
G01 X12.4438 Y9.0942
G01 X12.4753 Y9.1608
G01 X12.4803 Y9.1721
G01 X12.4847 Y9.1834
G01 X12.5095 Y9.2528
G01 X12.5133 Y9.2644
G01 X12.5166 Y9.2762
G01 X12.5345 Y9.3477
G01 X12.5372 Y9.3596
G01 X12.5393 Y9.3717
G01 X12.5501 Y9.4446
G01 X12.5516 Y9.4568
G01 X12.5525 Y9.4690
G01 X12.5561 Y9.5425
G01 X12.5564 Y9.5548
G01 X12.5564 Y10.1128
G01 X12.7153 Y10.5021
G01 X12.7484 Y10.5945
G01 X12.7522 Y10.6062
G01 X12.7555 Y10.6180
G01 X12.7793 Y10.7132
G01 X12.7820 Y10.7252
G01 X12.7841 Y10.7373
G01 X12.7985 Y10.8343
G01 X12.8000 Y10.8465
G01 X12.8009 Y10.8587
G01 X12.8057 Y10.9568
G01 X12.8060 Y10.9690
G01 X12.8057 Y10.9813
G01 X12.8009 Y11.0793
G01 X12.8000 Y11.0915
G01 X12.7985 Y11.1037
G01 X12.7841 Y11.2008
G01 X12.7820 Y11.2129
G01 X12.7793 Y11.2249
G01 X12.7555 Y11.3201
G01 X12.7522 Y11.3319
G01 X12.7484 Y11.3435
G01 X12.7153 Y11.4359
G01 X12.7109 Y11.4474
G01 X12.7059 Y11.4586
G01 X12.6639 Y11.5473
G01 X12.6584 Y11.5583
G01 X12.6524 Y11.5689
G01 X12.6019 Y11.6531
G01 X12.5954 Y11.6635
G01 X12.5883 Y11.6735
G01 X12.5298 Y11.7523
G01 X12.5223 Y11.7620
G01 X12.5143 Y11.7713
G01 X12.4484 Y11.8440
G01 X12.4399 Y11.8529
G01 X12.4310 Y11.8614
G01 X12.3583 Y11.9273
G01 X12.3490 Y11.9353
G01 X12.3393 Y11.9428
G01 X12.2605 Y12.0013
G01 X12.2505 Y12.0084
G01 X12.2401 Y12.0149
G01 X12.1559 Y12.0654
G01 X12.1453 Y12.0714
G01 X12.1343 Y12.0769
G01 X12.0456 Y12.1189
G01 X12.0344 Y12.1239
G01 X12.0229 Y12.1283
G01 X11.9305 Y12.1614
G01 X11.9189 Y12.1652
G01 X11.9071 Y12.1685
G01 X11.8119 Y12.1923
G01 X11.7999 Y12.1950
G01 X11.7878 Y12.1971
G01 X11.6907 Y12.2115
G01 X11.6785 Y12.2130
G01 X11.6663 Y12.2139
G01 X11.5683 Y12.2187
G01 X11.5560 Y12.2190
G01 X11.5438 Y12.2187
G01 X11.4457 Y12.2139
G01 X11.4335 Y12.2130
G01 X11.4213 Y12.2115
G01 X11.3243 Y12.1971
G01 X11.3122 Y12.1950
G01 X11.3002 Y12.1923
G01 X11.2050 Y12.1685
G01 X11.1932 Y12.1652
G01 X11.1815 Y12.1614
G01 X11.0891 Y12.1283
G01 X11.0777 Y12.1239
G01 X11.0665 Y12.1189
G01 X10.9777 Y12.0769
G01 X10.9668 Y12.0714
G01 X10.9561 Y12.0654
G01 X10.8719 Y12.0149
G01 X10.8616 Y12.0084
G01 X10.8515 Y12.0013
G01 X10.7727 Y11.9428
G01 X10.7630 Y11.9353
G01 X10.7537 Y11.9273
G01 X10.6810 Y11.8614
G01 X10.6721 Y11.8529
G01 X10.6637 Y11.8440
G01 X10.5937 Y11.7667
G01 X10.5822 Y11.7523
G01 X10.5238 Y11.6735
G01 X10.5167 Y11.6635
G01 X10.5101 Y11.6531
G01 X10.4597 Y11.5689
G01 X10.4536 Y11.5583
G01 X10.4481 Y11.5473
G01 X10.4061 Y11.4586
G01 X10.4012 Y11.4474
G01 X10.3968 Y11.4359
G01 X10.3637 Y11.3435
G01 X10.3598 Y11.3319
G01 X10.3566 Y11.3201
G01 X10.3327 Y11.2249
G01 X10.3300 Y11.2129
G01 X10.3279 Y11.2008
G01 X10.3127 Y11.0976
G01 X10.3111 Y11.0793
G01 X10.3063 Y10.9813
G01 X10.3060 Y10.9698
G01 X10.3063 Y10.9584
G01 X10.3570 Y9.7705
G01 X10.1429 Y9.5564
G01 X8.1604 Y9.5564
G01 X7.8510 Y9.8658
G01 X7.7254 Y10.9886
G01 X7.7209 Y11.0793
G01 X7.7193 Y11.0976
G01 X7.7041 Y11.2008
G01 X7.7020 Y11.2129
G01 X7.6993 Y11.2249
G01 X7.6739 Y11.3260
G01 X7.6684 Y11.3435
G01 X7.6353 Y11.4359
G01 X7.6309 Y11.4474
G01 X7.6259 Y11.4586
G01 X7.5839 Y11.5473
G01 X7.5784 Y11.5583
G01 X7.5724 Y11.5689
G01 X7.5219 Y11.6531
G01 X7.5154 Y11.6635
G01 X7.5083 Y11.6735
G01 X7.4498 Y11.7523
G01 X7.4423 Y11.7620
G01 X7.4343 Y11.7713
G01 X7.3684 Y11.8440
G01 X7.3599 Y11.8529
G01 X7.3510 Y11.8614
G01 X7.2783 Y11.9273
G01 X7.2690 Y11.9353
G01 X7.2593 Y11.9428
G01 X7.1805 Y12.0013
G01 X7.1705 Y12.0084
G01 X7.1601 Y12.0149
G01 X7.0759 Y12.0654
G01 X7.0653 Y12.0714
G01 X7.0543 Y12.0769
G01 X6.9656 Y12.1189
G01 X6.9544 Y12.1239
G01 X6.9429 Y12.1283
G01 X6.8505 Y12.1614
G01 X6.8389 Y12.1652
G01 X6.8271 Y12.1685
G01 X6.7319 Y12.1923
G01 X6.7199 Y12.1950
G01 X6.7078 Y12.1971
G01 X6.6107 Y12.2115
G01 X6.5985 Y12.2130
G01 X6.5863 Y12.2139
G01 X6.4883 Y12.2187
G01 X6.4760 Y12.2190
G01 X6.4638 Y12.2187
G01 X6.3657 Y12.2139
G01 X6.3535 Y12.2130
G01 X6.3413 Y12.2115
G01 X6.2382 Y12.1961
G01 X6.2202 Y12.1923
G01 X6.1250 Y12.1685
G01 X6.1132 Y12.1652
G01 X6.1015 Y12.1614
G01 X6.0241 Y12.1336
G01 X5.2781 Y11.9694
G01 X5.1304 Y11.9694
G01 X4.9384 Y12.1614
G01 X4.9384 Y14.8747
G01 X5.2393 Y15.1756
G01 X7.0106 Y15.1748
G01 X8.7337 Y14.9594
G01 X8.7662 Y14.9513
G01 X8.7782 Y14.9489
G01 X8.8813 Y14.9335
G01 X8.8935 Y14.9320
G01 X8.9057 Y14.9311
G01 X9.0038 Y14.9263
G01 X9.0160 Y14.9260
G01 X9.0283 Y14.9263
G01 X9.1263 Y14.9311
G01 X9.1385 Y14.9320
G01 X9.1507 Y14.9335
G01 X9.2478 Y14.9479
G01 X9.2599 Y14.9500
G01 X9.2719 Y14.9527
G01 X9.3784 Y14.9797
G01 X9.3905 Y14.9837
G01 X9.4829 Y15.0168
G01 X9.4944 Y15.0212
G01 X9.5056 Y15.0261
G01 X9.5943 Y15.0681
G01 X9.6053 Y15.0736
G01 X9.6159 Y15.0797
G01 X9.7001 Y15.1301
G01 X9.7105 Y15.1367
G01 X9.7205 Y15.1438
G01 X9.7993 Y15.2022
G01 X9.8090 Y15.2098
G01 X9.8183 Y15.2178
G01 X9.8910 Y15.2837
G01 X9.8999 Y15.2921
G01 X9.9084 Y15.3010
G01 X9.9743 Y15.3737
G01 X9.9823 Y15.3830
G01 X9.9898 Y15.3927
G01 X10.0483 Y15.4715
G01 X10.0554 Y15.4816
G01 X10.0619 Y15.4919
G01 X10.1124 Y15.5761
G01 X10.1184 Y15.5868
G01 X10.1239 Y15.5977
G01 X10.1659 Y15.6865
G01 X10.1709 Y15.6977
G01 X10.1753 Y15.7091
G01 X10.2084 Y15.8015
G01 X10.2122 Y15.8132
G01 X10.2155 Y15.8250
G01 X10.2393 Y15.9202
G01 X10.2420 Y15.9322
G01 X10.2441 Y15.9443
G01 X10.2585 Y16.0413
G01 X10.2600 Y16.0535
G01 X10.2609 Y16.0657
G01 X10.2657 Y16.1638
G01 X10.2660 Y16.1760
G01 X10.2657 Y16.1883
G01 X10.2609 Y16.2863
G01 X10.2600 Y16.2985
G01 X10.2585 Y16.3107
G01 X10.2431 Y16.4139
G01 X10.2393 Y16.4319
G01 X10.2155 Y16.5271
G01 X10.2122 Y16.5389
G01 X10.2084 Y16.5505
G01 X10.1753 Y16.6429
G01 X10.1709 Y16.6544
G01 X10.1659 Y16.6656
G01 X10.1239 Y16.7543
G01 X10.1184 Y16.7653
G01 X10.1124 Y16.7759
G01 X10.0619 Y16.8601
G01 X10.0554 Y16.8705
G01 X10.0483 Y16.8805
G01 X9.9898 Y16.9593
G01 X9.9823 Y16.9690
G01 X9.9743 Y16.9783
G01 X9.9084 Y17.0510
G01 X9.8999 Y17.0599
G01 X9.8910 Y17.0684
G01 X9.8183 Y17.1343
G01 X9.8090 Y17.1423
G01 X9.7993 Y17.1498
G01 X9.7205 Y17.2083
G01 X9.7105 Y17.2154
G01 X9.7001 Y17.2219
G01 X9.6159 Y17.2724
G01 X9.6053 Y17.2784
G01 X9.5943 Y17.2839
G01 X9.5056 Y17.3259
G01 X9.4944 Y17.3309
G01 X9.4829 Y17.3353
G01 X9.3905 Y17.3684
G01 X9.3789 Y17.3722
G01 X9.3671 Y17.3755
G01 X9.2719 Y17.3993
G01 X9.2599 Y17.4020
G01 X9.2478 Y17.4041
G01 X9.1507 Y17.4185
G01 X9.1385 Y17.4200
G01 X9.1263 Y17.4209
G01 X9.0283 Y17.4257
G01 X9.0160 Y17.4260
G01 X9.0038 Y17.4257
G01 X8.9057 Y17.4209
G01 X8.8874 Y17.4193
G01 X8.7782 Y17.4031
G01 X8.7662 Y17.4007
G01 X8.7337 Y17.3927
G01 X7.0035 Y17.1764
G01 X4.8250 Y17.1764
G01 X4.8128 Y17.1761
G01 X4.7392 Y17.1725
G01 X4.7270 Y17.1716
G01 X4.7148 Y17.1701
G01 X4.6420 Y17.1593
G01 X4.6299 Y17.1572
G01 X4.6179 Y17.1545
G01 X4.5465 Y17.1366
G01 X4.5346 Y17.1333
G01 X4.5230 Y17.1295
G01 X4.4536 Y17.1047
G01 X4.4422 Y17.1003
G01 X4.4310 Y17.0953
G01 X4.3644 Y17.0638
G01 X4.3535 Y17.0583
G01 X4.3428 Y17.0522
G01 X4.2796 Y17.0144
G01 X4.2692 Y17.0078
G01 X4.2592 Y17.0007
G01 X4.2001 Y16.9569
G01 X4.1857 Y16.9454
G01 X4.1265 Y16.8919
G01 X4.1177 Y16.8834
G01 X3.2264 Y15.9920
G01 X3.1727 Y15.9329
G01 X3.1647 Y15.9237
G01 X3.1572 Y15.9140
G01 X3.1097 Y15.8499
G01 X3.0997 Y15.8344
G01 X3.0587 Y15.7660
G01 X3.0529 Y15.7552
G01 X3.0383 Y15.7243
G01 X3.0383 Y16.5033
G01 X3.9928 Y17.4578
G01 X10.0320 Y17.4578
G01 X10.0933 Y17.4605
G01 X10.1056 Y17.4614
G01 X10.1177 Y17.4629
G01 X10.1784 Y17.4722
G01 X10.2380 Y17.4868
G01 X10.2498 Y17.4901
G01 X10.2615 Y17.4939
G01 X10.3077 Y17.5105
G01 X10.3248 Y17.5173
G01 X10.3747 Y17.5408
G01 X10.3857 Y17.5464
G01 X10.4385 Y17.5777
G01 X10.4488 Y17.5842
G01 X10.4589 Y17.5913
G01 X10.5032 Y17.6242
G01 X10.5173 Y17.6361
G01 X10.5581 Y17.6732
G01 X10.6502 Y17.7652
G01 X12.0555 Y18.5868
G01 X12.1343 Y18.6241
G01 X12.1453 Y18.6296
G01 X12.1559 Y18.6357
G01 X12.2401 Y18.6861
G01 X12.2505 Y18.6927
G01 X12.2605 Y18.6998
G01 X12.3393 Y18.7582
G01 X12.3537 Y18.7697
G01 X12.4310 Y18.8397
G01 X12.4399 Y18.8481
G01 X12.4484 Y18.8570
G01 X12.5143 Y18.9297
G01 X12.5223 Y18.9390
G01 X12.5298 Y18.9487
G01 X12.5883 Y19.0275
G01 X12.5954 Y19.0376
G01 X12.6019 Y19.0479
G01 X12.6524 Y19.1321
G01 X12.6584 Y19.1428
G01 X12.6639 Y19.1537
G01 X12.7059 Y19.2425
G01 X12.7109 Y19.2538
G01 X12.7153 Y19.2651
G01 X12.7484 Y19.3575
G01 X12.7522 Y19.3692
G01 X12.7555 Y19.3810
G01 X12.7793 Y19.4762
G01 X12.7820 Y19.4882
G01 X12.7841 Y19.5003
G01 X12.7985 Y19.5973
G01 X12.8000 Y19.6095
G01 X12.8009 Y19.6217
G01 X12.8057 Y19.7198
G01 X12.8060 Y19.7320
G01 X12.8057 Y19.7443
G01 X12.8009 Y19.8423
G01 X12.8000 Y19.8545
G01 X12.7985 Y19.8667
G01 X12.7841 Y19.9638
G01 X12.7820 Y19.9759
G01 X12.7793 Y19.9879
G01 X12.7555 Y20.0831
G01 X12.7522 Y20.0949
G01 X12.7484 Y20.1065
G01 X12.7153 Y20.1989
G01 X12.7109 Y20.2104
G01 X12.7059 Y20.2216
G01 X12.6639 Y20.3103
G01 X12.6584 Y20.3213
G01 X12.6524 Y20.3319
G01 X12.6019 Y20.4161
G01 X12.5954 Y20.4265
G01 X12.5883 Y20.4365
G01 X12.5298 Y20.5153
G01 X12.5223 Y20.5250
G01 X12.5143 Y20.5343
G01 X12.4484 Y20.6070
G01 X12.4399 Y20.6159
G01 X12.4310 Y20.6244
G01 X12.3583 Y20.6903
G01 X12.3490 Y20.6983
G01 X12.3393 Y20.7058
G01 X12.2605 Y20.7643
G01 X12.2505 Y20.7714
G01 X12.2401 Y20.7779
G01 X12.1559 Y20.8284
G01 X12.1453 Y20.8344
G01 X12.1343 Y20.8399
G01 X12.0456 Y20.8819
G01 X12.0344 Y20.8869
G01 X12.0229 Y20.8913
G01 X11.9305 Y20.9244
G01 X11.9189 Y20.9282
G01 X11.9071 Y20.9315
G01 X11.8119 Y20.9553
G01 X11.7999 Y20.9580
G01 X11.7878 Y20.9601
G01 X11.6846 Y20.9753
G01 X11.6663 Y20.9769
G01 X11.5651 Y20.9819
G01 X10.3054 Y21.0276
G01 X7.3875 Y23.9455
G01 X7.3423 Y23.9870
G01 X7.3330 Y23.9950
G01 X7.3233 Y24.0025
G01 X7.2839 Y24.0318
G01 X7.2686 Y24.0423
G01 X7.2161 Y24.0737
G01 X7.1997 Y24.0822
G01 X7.1498 Y24.1057
G01 X7.1327 Y24.1126
G01 X7.0748 Y24.1330
G01 X7.0154 Y24.1482
G01 X7.0034 Y24.1509
G01 X6.9913 Y24.1530
G01 X6.9367 Y24.1610
G01 X6.9183 Y24.1626
G01 X6.8570 Y24.1653
G01 X6.6701 Y24.1653
G01 X6.1708 Y24.4426
G01 X6.1545 Y24.4544
G01 X6.1441 Y24.4609
G01 X6.0599 Y24.5114
G01 X6.0493 Y24.5174
G01 X6.0383 Y24.5229
G01 X5.9496 Y24.5649
G01 X5.9384 Y24.5699
G01 X5.9269 Y24.5743
G01 X5.8345 Y24.6074
G01 X5.8229 Y24.6112
G01 X5.8111 Y24.6145
G01 X5.7159 Y24.6383
G01 X5.7039 Y24.6410
G01 X5.6918 Y24.6431
G01 X5.5947 Y24.6575
G01 X5.5825 Y24.6590
G01 X5.5703 Y24.6599
G01 X5.4723 Y24.6647
G01 X5.4600 Y24.6650
G01 X5.4478 Y24.6647
G01 X5.3497 Y24.6599
G01 X5.3375 Y24.6590
G01 X5.3253 Y24.6575
G01 X5.2283 Y24.6431
G01 X5.2162 Y24.6410
G01 X5.2042 Y24.6383
G01 X5.1090 Y24.6145
G01 X5.0972 Y24.6112
G01 X5.0855 Y24.6074
G01 X4.9931 Y24.5743
G01 X4.9817 Y24.5699
G01 X4.9705 Y24.5649
G01 X4.8817 Y24.5229
G01 X4.8708 Y24.5174
G01 X4.8601 Y24.5114
G01 X4.7759 Y24.4609
G01 X4.7656 Y24.4544
G01 X4.7555 Y24.4473
G01 X4.6767 Y24.3888
G01 X4.6670 Y24.3813
G01 X4.6577 Y24.3733
G01 X4.5850 Y24.3074
G01 X4.5761 Y24.2989
G01 X4.5677 Y24.2900
G01 X4.5018 Y24.2173
G01 X4.4938 Y24.2080
G01 X4.4862 Y24.1983
G01 X4.4278 Y24.1195
G01 X4.4207 Y24.1095
G01 X4.4141 Y24.0991
G01 X4.3637 Y24.0149
G01 X4.3576 Y24.0043
G01 X4.3521 Y23.9933
G01 X4.3101 Y23.9046
G01 X4.3052 Y23.8934
G01 X4.3008 Y23.8819
G01 X4.2677 Y23.7895
G01 X4.2638 Y23.7779
G01 X4.2606 Y23.7661
G01 X4.2367 Y23.6709
G01 X4.2340 Y23.6589
G01 X4.2319 Y23.6468
G01 X4.2175 Y23.5497
G01 X4.2160 Y23.5375
G01 X4.2151 Y23.5253
G01 X4.2103 Y23.4273
G01 X4.2100 Y23.4150
G01 X4.2103 Y23.4028
G01 X4.2151 Y23.3047
G01 X4.2160 Y23.2925
G01 X4.2175 Y23.2803
G01 X4.2319 Y23.1833
G01 X4.2340 Y23.1712
G01 X4.2367 Y23.1592
G01 X4.2606 Y23.0640
G01 X4.2637 Y23.0527
G01 X4.2674 Y23.0415
G01 X4.3008 Y22.9481
G01 X4.3052 Y22.9367
G01 X4.3101 Y22.9255
G01 X4.3521 Y22.8367
G01 X4.3576 Y22.8258
G01 X4.3637 Y22.8151
G01 X4.4141 Y22.7309
G01 X4.4207 Y22.7206
G01 X4.4278 Y22.7105
G01 X4.4862 Y22.6317
G01 X4.4938 Y22.6220
G01 X4.5018 Y22.6127
G01 X4.5677 Y22.5400
G01 X4.5761 Y22.5311
G01 X4.5850 Y22.5227
G01 X4.6577 Y22.4568
G01 X4.6670 Y22.4488
G01 X4.6767 Y22.4412
G01 X4.7555 Y22.3828
G01 X4.7656 Y22.3757
G01 X4.7759 Y22.3691
G01 X4.8601 Y22.3187
G01 X4.8708 Y22.3126
G01 X4.8817 Y22.3071
G01 X4.9705 Y22.2651
G01 X4.9818 Y22.2601
G01 X4.9931 Y22.2558
G01 X5.0855 Y22.2227
G01 X5.0972 Y22.2188
G01 X5.1090 Y22.2156
G01 X5.2042 Y22.1917
G01 X5.2162 Y22.1890
G01 X5.2283 Y22.1869
G01 X5.3253 Y22.1725
G01 X5.3375 Y22.1710
G01 X5.3497 Y22.1701
G01 X5.4478 Y22.1653
G01 X5.4600 Y22.1650
G01 X5.4723 Y22.1653
G01 X5.5703 Y22.1701
G01 X5.5886 Y22.1717
G01 X5.6918 Y22.1869
G01 X5.7039 Y22.1890
G01 X5.7159 Y22.1917
G01 X5.8033 Y22.2136
G01 X6.8419 Y22.3691
G01 X9.8827 Y19.3283
G01 X9.6664 Y18.9583
G01 X3.6820 Y18.9583
G01 X3.6207 Y18.9556
G01 X3.6085 Y18.9547
G01 X3.5963 Y18.9532
G01 X3.5357 Y18.9439
G01 X3.4761 Y18.9292
G01 X3.4642 Y18.9260
G01 X3.4526 Y18.9221
G01 X3.3949 Y18.9012
G01 X3.3393 Y18.8752
G01 X3.3230 Y18.8667
G01 X3.2756 Y18.8384
G01 X3.2652 Y18.8318
G01 X3.2157 Y18.7955
G01 X3.2014 Y18.7840
G01 X3.1559 Y18.7428
G01 X1.7575 Y17.3445
G01 X1.7161 Y17.2993
G01 X1.7042 Y17.2852
G01 X1.6713 Y17.2409
G01 X1.6641 Y17.2307
G01 X1.6383 Y17.1881
G01 X1.6383 Y18.7863
G01 X2.9768 Y20.1248
G01 X3.4288 Y20.1248
G01 X5.0034 Y19.7121
G01 X5.0855 Y19.6827
G01 X5.0972 Y19.6788
G01 X5.1090 Y19.6756
G01 X5.2042 Y19.6517
G01 X5.2162 Y19.6490
G01 X5.2283 Y19.6469
G01 X5.3253 Y19.6325
G01 X5.3375 Y19.6310
G01 X5.3497 Y19.6301
G01 X5.4478 Y19.6253
G01 X5.4600 Y19.6250
G01 X5.4723 Y19.6253
G01 X5.5703 Y19.6301
G01 X5.5825 Y19.6310
G01 X5.5947 Y19.6325
G01 X5.6918 Y19.6469
G01 X5.7039 Y19.6490
G01 X5.7159 Y19.6517
G01 X5.8224 Y19.6787
G01 X5.8336 Y19.6824
G01 X5.9269 Y19.7158
G01 X5.9384 Y19.7202
G01 X5.9496 Y19.7251
G01 X6.0383 Y19.7671
G01 X6.0493 Y19.7726
G01 X6.0599 Y19.7787
G01 X6.1441 Y19.8291
G01 X6.1545 Y19.8357
G01 X6.1645 Y19.8428
G01 X6.2433 Y19.9012
G01 X6.2530 Y19.9088
G01 X6.2623 Y19.9168
G01 X6.3350 Y19.9827
G01 X6.3439 Y19.9911
G01 X6.3524 Y20.0000
G01 X6.4183 Y20.0727
G01 X6.4301 Y20.0868
G01 X6.4923 Y20.1705
G01 X6.4994 Y20.1806
G01 X6.5059 Y20.1909
G01 X6.5564 Y20.2751
G01 X6.5624 Y20.2858
G01 X6.5679 Y20.2967
G01 X6.6099 Y20.3855
G01 X6.6149 Y20.3968
G01 X6.6193 Y20.4081
G01 X6.6524 Y20.5005
G01 X6.6562 Y20.5122
G01 X6.6595 Y20.5240
G01 X6.6833 Y20.6192
G01 X6.6860 Y20.6312
G01 X6.6881 Y20.6433
G01 X6.7025 Y20.7403
G01 X6.7040 Y20.7525
G01 X6.7049 Y20.7647
G01 X6.7097 Y20.8628
G01 X6.7100 Y20.8750
G01 X6.7097 Y20.8873
G01 X6.7049 Y20.9853
G01 X6.7040 Y20.9975
G01 X6.7025 Y21.0097
G01 X6.6881 Y21.1068
G01 X6.6860 Y21.1189
G01 X6.6833 Y21.1309
G01 X6.6595 Y21.2261
G01 X6.6562 Y21.2379
G01 X6.6524 Y21.2495
G01 X6.6193 Y21.3419
G01 X6.6149 Y21.3534
G01 X6.6099 Y21.3646
G01 X6.5679 Y21.4533
G01 X6.5624 Y21.4643
G01 X6.5564 Y21.4749
G01 X6.5059 Y21.5591
G01 X6.4994 Y21.5695
G01 X6.4923 Y21.5795
G01 X6.4338 Y21.6583
G01 X6.4263 Y21.6680
G01 X6.4183 Y21.6773
G01 X6.3524 Y21.7500
G01 X6.3439 Y21.7589
G01 X6.3350 Y21.7674
G01 X6.2623 Y21.8333
G01 X6.2530 Y21.8413
G01 X6.2433 Y21.8488
G01 X6.1645 Y21.9073
G01 X6.1545 Y21.9144
G01 X6.1441 Y21.9209
G01 X6.0599 Y21.9714
G01 X6.0493 Y21.9774
G01 X6.0383 Y21.9829
G01 X5.9496 Y22.0249
G01 X5.9384 Y22.0299
G01 X5.9269 Y22.0343
G01 X5.8345 Y22.0674
G01 X5.8229 Y22.0712
G01 X5.8111 Y22.0745
G01 X5.7159 Y22.0983
G01 X5.7039 Y22.1010
G01 X5.6918 Y22.1031
G01 X5.5947 Y22.1175
G01 X5.5825 Y22.1190
G01 X5.5703 Y22.1199
G01 X5.4662 Y22.1249
G01 X5.4478 Y22.1247
G01 X5.3497 Y22.1199
G01 X5.3375 Y22.1190
G01 X5.3253 Y22.1175
G01 X5.2283 Y22.1031
G01 X5.2162 Y22.1010
G01 X5.2042 Y22.0983
G01 X5.1090 Y22.0745
G01 X5.0972 Y22.0712
G01 X5.0855 Y22.0674
G01 X5.0034 Y22.0380
G01 X3.4288 Y21.6253
G01 X2.6660 Y21.6253
G01 X2.6538 Y21.6250
G01 X2.5986 Y21.6222
G01 X2.5803 Y21.6202
G01 X2.5197 Y21.6109
G01 X2.5077 Y21.6082
G01 X2.4482 Y21.5930
G01 X2.3904 Y21.5726
G01 X2.3789 Y21.5682
G01 X2.3677 Y21.5632
G01 X2.3178 Y21.5395
G01 X2.3017 Y21.5306
G01 X2.2596 Y21.5054
G01 X2.2492 Y21.4988
G01 X2.2392 Y21.4918
G01 X2.1901 Y21.4550
G01 X2.1808 Y21.4470
G01 X2.1355 Y21.4055
G01 X0.3575 Y19.6275
G01 X0.3491 Y19.6186
G01 X0.3081 Y19.5730
G01 X0.2713 Y19.5239
G01 X0.2608 Y19.5085
G01 X0.2324 Y19.4614
G01 X0.2264 Y19.4507
G01 X0.1999 Y19.3954
G01 X0.1949 Y19.3841
G01 X0.1905 Y19.3727
G01 X0.1701 Y19.3148
G01 X0.1549 Y19.2554
G01 X0.1522 Y19.2434
G01 X0.1501 Y19.2313
G01 X0.1414 Y19.1706
G01 X0.1381 Y19.1093
G01 X0.1378 Y19.0970
G01 X0.1378 Y3.6030
G01 X0.1381 Y3.5908
G00 Z2.0000
G00 X0.1880 Y3.5932
G01 F60.00
G01 Z-0.3172
G01 F80.00
G01 X0.1911 Y3.5344
G01 X0.2012 Y3.4664
G01 X0.2179 Y3.3998
G01 X0.2375 Y3.3442
G01 X0.2451 Y3.3261
G01 X0.2682 Y3.2773
G01 X0.2753 Y3.2644
G01 X0.3058 Y3.2140
G01 X0.3407 Y3.1665
G01 X0.3499 Y3.1550
G01 X0.3929 Y3.1079
G01 X0.9009 Y2.5999
G01 X0.9480 Y2.5569
G01 X0.9595 Y2.5477
G01 X1.0070 Y2.5128
G01 X1.0659 Y2.4775
G01 X1.1281 Y2.4481
G01 X1.1834 Y2.4280
G01 X1.2022 Y2.4223
G01 X1.2594 Y2.4082
G01 X1.3176 Y2.3993
G01 X1.3372 Y2.3974
G01 X1.3960 Y2.3948
G01 X4.7052 Y2.3948
G01 X6.2880 Y1.9800
G01 X6.3817 Y1.9467
G01 X6.4863 Y1.9202
G01 X6.5056 Y1.9164
G01 X6.6124 Y1.9008
G01 X6.7300 Y1.8950
G01 X6.8476 Y1.9008
G01 X6.9545 Y1.9164
G01 X6.9737 Y1.9202
G01 X7.0780 Y1.9466
G01 X7.1720 Y1.9800
G01 X8.7548 Y2.3948
G01 X9.6559 Y2.3948
G01 X9.7197 Y2.3981
G01 X9.7780 Y2.4066
G01 X9.7972 Y2.4104
G01 X9.8496 Y2.4236
G01 X9.8636 Y2.4280
G01 X9.9190 Y2.4481
G01 X9.9724 Y2.4730
G01 X9.9897 Y2.4823
G01 X10.0318 Y2.5075
G01 X10.0441 Y2.5156
G01 X10.0953 Y2.5537
G01 X10.1391 Y2.5931
G01 X10.2446 Y2.6983
G01 X10.6350 Y2.7884
G01 X10.6528 Y2.7894
G01 X10.6625 Y2.7903
G01 X10.7741 Y2.8071
G01 X10.8880 Y2.8356
G01 X10.9901 Y2.8718
G01 X11.0082 Y2.8793
G01 X11.1057 Y2.9257
G01 X11.2067 Y2.9863
G01 X11.3013 Y3.0564
G01 X11.3886 Y3.1355
G01 X11.4676 Y3.2228
G01 X11.5321 Y3.3093
G01 X11.5430 Y3.3256
G01 X11.5935 Y3.4098
G01 X11.6027 Y3.4271
G01 X11.6487 Y3.5249
G01 X11.6853 Y3.6264
G01 X11.6897 Y3.6404
G01 X11.7170 Y3.7499
G01 X11.7330 Y3.8567
G01 X11.7350 Y3.8762
G01 X11.7400 Y3.9840
G01 X11.7350 Y4.0919
G01 X11.7330 Y4.1114
G01 X11.7186 Y4.2085
G01 X11.7148 Y4.2277
G01 X11.6884 Y4.3324
G01 X11.6487 Y4.4432
G01 X11.5983 Y4.5497
G01 X11.5430 Y4.6424
G01 X11.5321 Y4.6587
G01 X11.4676 Y4.7453
G01 X11.3953 Y4.8254
G01 X11.3814 Y4.8393
G01 X11.3087 Y4.9052
G01 X11.2936 Y4.9177
G01 X11.2067 Y4.9818
G01 X11.1057 Y5.0423
G01 X10.9992 Y5.0927
G01 X10.8977 Y5.1293
G01 X10.8789 Y5.1350
G01 X10.7741 Y5.1610
G01 X10.6674 Y5.1770
G01 X10.6479 Y5.1790
G01 X10.5449 Y5.1840
G01 X10.5302 Y5.1838
G01 X10.4224 Y5.1782
G01 X10.3156 Y5.1626
G01 X10.2963 Y5.1588
G01 X10.2011 Y5.1350
G01 X10.1831 Y5.1295
G01 X10.0808 Y5.0927
G01 X9.9743 Y5.0423
G01 X9.8733 Y4.9818
G01 X9.7788 Y4.9116
G01 X9.6915 Y4.8326
G01 X9.6156 Y4.7491
G01 X9.6064 Y4.7376
G01 X9.5769 Y4.6978
G01 X8.8155 Y3.7953
G01 X8.7548 Y3.7953
G01 X7.1720 Y4.2101
G01 X7.0784 Y4.2434
G01 X6.9737 Y4.2698
G01 X6.9545 Y4.2736
G01 X6.8476 Y4.2892
G01 X6.7349 Y4.2950
G01 X6.7202 Y4.2948
G01 X6.6124 Y4.2892
G01 X6.5056 Y4.2736
G01 X6.4863 Y4.2698
G01 X6.3817 Y4.2434
G01 X6.2880 Y4.2101
G01 X4.7052 Y3.7953
G01 X1.6861 Y3.7953
G01 X1.5883 Y3.8931
G01 X1.5883 Y8.7024
G01 X1.5904 Y8.6587
G01 X1.5919 Y8.6428
G01 X1.5931 Y8.2076
G01 X1.5981 Y8.1047
G01 X1.6000 Y8.0852
G01 X1.6161 Y7.9784
G01 X1.6446 Y7.8646
G01 X1.6478 Y7.8549
G01 X1.6844 Y7.7533
G01 X1.7347 Y7.6468
G01 X1.7953 Y7.5458
G01 X1.8654 Y7.4513
G01 X1.9445 Y7.3640
G01 X2.0318 Y7.2849
G01 X2.1263 Y7.2148
G01 X2.2273 Y7.1542
G01 X2.3339 Y7.1038
G01 X2.4447 Y7.0642
G01 X2.5589 Y7.0356
G01 X2.6754 Y7.0183
G01 X2.7930 Y7.0125
G01 X2.9009 Y7.0176
G01 X2.9204 Y7.0195
G01 X3.0271 Y7.0356
G01 X3.1319 Y7.0616
G01 X3.1499 Y7.0670
G01 X3.2431 Y7.1003
G01 X3.2612 Y7.1078
G01 X3.3587 Y7.1542
G01 X3.4514 Y7.2095
G01 X3.4677 Y7.2204
G01 X3.5543 Y7.2849
G01 X3.6416 Y7.3640
G01 X3.7206 Y7.4513
G01 X3.7908 Y7.5458
G01 X3.8513 Y7.6468
G01 X3.9017 Y7.7534
G01 X3.9414 Y7.8642
G01 X3.9678 Y7.9688
G01 X3.9709 Y7.9832
G01 X3.9872 Y8.0949
G01 X3.9928 Y8.2027
G01 X3.9928 Y8.2223
G01 X3.9872 Y8.3301
G01 X3.9700 Y8.4466
G01 X3.9440 Y8.5514
G01 X3.9383 Y8.5702
G01 X3.9052 Y8.6626
G01 X3.8977 Y8.6807
G01 X3.8513 Y8.7782
G01 X3.7935 Y8.8751
G01 X3.7851 Y8.8872
G01 X3.7237 Y8.9700
G01 X3.7142 Y8.9812
G01 X3.6943 Y9.0032
G01 X2.9883 Y10.1125
G01 X2.9883 Y11.7294
G01 X2.9922 Y11.6539
G01 X3.0059 Y11.5616
G01 X3.0286 Y11.4711
G01 X3.0565 Y11.3925
G01 X3.0640 Y11.3744
G01 X3.0955 Y11.3078
G01 X3.1047 Y11.2905
G01 X3.1478 Y11.2190
G01 X3.2003 Y11.1479
G01 X3.2098 Y11.1367
G01 X3.2660 Y11.0750
G01 X4.0440 Y10.2970
G01 X4.1131 Y10.2344
G01 X4.1880 Y10.1788
G01 X4.2680 Y10.1309
G01 X4.3434 Y10.0950
G01 X4.3615 Y10.0875
G01 X4.4401 Y10.0596
G01 X4.5210 Y10.0391
G01 X4.5403 Y10.0352
G01 X4.6131 Y10.0244
G01 X4.6327 Y10.0225
G01 X4.7160 Y10.0186
G01 X5.4268 Y10.0186
G01 X5.5256 Y9.9918
G01 X5.5257 Y9.8211
G01 X5.5302 Y9.7329
G01 X5.5439 Y9.6406
G01 X5.5652 Y9.5549
G01 X5.5697 Y9.5408
G01 X5.5980 Y9.4623
G01 X5.6379 Y9.3780
G01 X5.6858 Y9.2980
G01 X5.7353 Y9.2309
G01 X5.7445 Y9.2194
G01 X5.8040 Y9.1540
G01 X7.0740 Y7.8840
G01 X7.1394 Y7.8245
G01 X7.1509 Y7.8153
G01 X7.2180 Y7.7658
G01 X7.2895 Y7.7227
G01 X7.3068 Y7.7135
G01 X7.3734 Y7.6820
G01 X7.3915 Y7.6745
G01 X7.4701 Y7.6466
G01 X7.5510 Y7.6261
G01 X7.5703 Y7.6222
G01 X7.6529 Y7.6102
G01 X7.7460 Y7.6056
G01 X10.5572 Y7.6056
G01 X10.6504 Y7.6102
G01 X10.7330 Y7.6222
G01 X10.7522 Y7.6261
G01 X10.8237 Y7.6440
G01 X10.8424 Y7.6497
G01 X10.9209 Y7.6780
G01 X11.0052 Y7.7179
G01 X11.0849 Y7.7656
G01 X11.1524 Y7.8153
G01 X11.1676 Y7.8278
G01 X11.2293 Y7.8840
G01 X12.2315 Y8.8863
G01 X12.2907 Y8.9519
G01 X12.3406 Y9.0188
G01 X12.3515 Y9.0351
G01 X12.3942 Y9.1068
G01 X12.4301 Y9.1821
G01 X12.4376 Y9.2003
G01 X12.4655 Y9.2789
G01 X12.4881 Y9.3694
G01 X12.5018 Y9.4617
G01 X12.5063 Y9.5499
G01 X12.5064 Y10.1226
G01 X12.6682 Y10.5190
G01 X12.7044 Y10.6207
G01 X12.7330 Y10.7349
G01 X12.7502 Y10.8514
G01 X12.7560 Y10.9690
G01 X12.7502 Y11.0866
G01 X12.7339 Y11.1983
G01 X12.7308 Y11.2127
G01 X12.7044 Y11.3174
G01 X12.6682 Y11.4191
G01 X12.6607 Y11.4372
G01 X12.6143 Y11.5347
G01 X12.5590 Y11.6274
G01 X12.5481 Y11.6437
G01 X12.4836 Y11.7303
G01 X12.4113 Y11.8104
G01 X12.3974 Y11.8243
G01 X12.3173 Y11.8966
G01 X12.2307 Y11.9611
G01 X12.2144 Y11.9720
G01 X12.1217 Y12.0273
G01 X12.0242 Y12.0737
G01 X12.0061 Y12.0812
G01 X11.9044 Y12.1174
G01 X11.7901 Y12.1460
G01 X11.6736 Y12.1632
G01 X11.5658 Y12.1688
G01 X11.5462 Y12.1688
G01 X11.4482 Y12.1640
G01 X11.4287 Y12.1620
G01 X11.3219 Y12.1460
G01 X11.2077 Y12.1174
G01 X11.0968 Y12.0777
G01 X10.9991 Y12.0317
G01 X10.9818 Y12.0225
G01 X10.8976 Y11.9720
G01 X10.8813 Y11.9611
G01 X10.7948 Y11.8966
G01 X10.7075 Y11.8176
G01 X10.6284 Y11.7303
G01 X10.5610 Y11.6398
G01 X10.5530 Y11.6274
G01 X10.4977 Y11.5347
G01 X10.4513 Y11.4372
G01 X10.4438 Y11.4191
G01 X10.4077 Y11.3174
G01 X10.3812 Y11.2127
G01 X10.3774 Y11.1935
G01 X10.3630 Y11.0964
G01 X10.3614 Y11.0818
G01 X10.3563 Y10.9788
G01 X10.3562 Y10.9605
G01 X10.4079 Y9.7507
G01 X10.1636 Y9.5064
G01 X8.1397 Y9.5064
G01 X7.8032 Y9.8428
G01 X7.6755 Y10.9844
G01 X7.6710 Y11.0769
G01 X7.6697 Y11.0915
G01 X7.6530 Y11.2031
G01 X7.6257 Y11.3127
G01 X7.6213 Y11.3267
G01 X7.5882 Y11.4191
G01 X7.5807 Y11.4372
G01 X7.5343 Y11.5347
G01 X7.4738 Y11.6357
G01 X7.4036 Y11.7303
G01 X7.3313 Y11.8104
G01 X7.3174 Y11.8243
G01 X7.2373 Y11.8966
G01 X7.1507 Y11.9611
G01 X7.1344 Y11.9720
G01 X7.0417 Y12.0273
G01 X6.9352 Y12.0777
G01 X6.8337 Y12.1143
G01 X6.8149 Y12.1200
G01 X6.7101 Y12.1460
G01 X6.5936 Y12.1632
G01 X6.4858 Y12.1688
G01 X6.4662 Y12.1688
G01 X6.3584 Y12.1632
G01 X6.2467 Y12.1469
G01 X6.2323 Y12.1438
G01 X6.1277 Y12.1174
G01 X6.0379 Y12.0855
G01 X5.2835 Y11.9194
G01 X5.1097 Y11.9194
G01 X4.8884 Y12.1407
G01 X4.8884 Y14.8954
G01 X5.2186 Y15.2256
G01 X7.0138 Y15.2247
G01 X8.7429 Y15.0086
G01 X8.7723 Y15.0012
G01 X8.7867 Y14.9982
G01 X8.8935 Y14.9823
G01 X8.9082 Y14.9811
G01 X9.0111 Y14.9761
G01 X9.0258 Y14.9763
G01 X9.1336 Y14.9818
G01 X9.2405 Y14.9974
G01 X9.2597 Y15.0012
G01 X9.3640 Y15.0276
G01 X9.4661 Y15.0638
G01 X9.4842 Y15.0713
G01 X9.5729 Y15.1133
G01 X9.5902 Y15.1226
G01 X9.6827 Y15.1783
G01 X9.7696 Y15.2424
G01 X9.7847 Y15.2548
G01 X9.8646 Y15.3275
G01 X9.9372 Y15.4073
G01 X9.9497 Y15.4225
G01 X10.0138 Y15.5093
G01 X10.0695 Y15.6018
G01 X10.0787 Y15.6191
G01 X10.1247 Y15.7168
G01 X10.1613 Y15.8184
G01 X10.1670 Y15.8371
G01 X10.1930 Y15.9419
G01 X10.2090 Y16.0487
G01 X10.2110 Y16.0682
G01 X10.2160 Y16.1760
G01 X10.2110 Y16.2839
G01 X10.2090 Y16.3034
G01 X10.1930 Y16.4101
G01 X10.1670 Y16.5149
G01 X10.1613 Y16.5337
G01 X10.1247 Y16.6352
G01 X10.0787 Y16.7329
G01 X10.0695 Y16.7502
G01 X10.0138 Y16.8427
G01 X9.9497 Y16.9296
G01 X9.9372 Y16.9447
G01 X9.8646 Y17.0246
G01 X9.7847 Y17.0972
G01 X9.7696 Y17.1097
G01 X9.6907 Y17.1681
G01 X9.6786 Y17.1765
G01 X9.5817 Y17.2343
G01 X9.4842 Y17.2807
G01 X9.4661 Y17.2882
G01 X9.3644 Y17.3244
G01 X9.2501 Y17.3530
G01 X9.1434 Y17.3690
G01 X9.1239 Y17.3710
G01 X9.0258 Y17.3758
G01 X9.0111 Y17.3760
G01 X8.9082 Y17.3710
G01 X8.8935 Y17.3697
G01 X8.7867 Y17.3539
G01 X8.7723 Y17.3508
G01 X8.7429 Y17.3434
G01 X7.0066 Y17.1264
G01 X4.8201 Y17.1263
G01 X4.7417 Y17.1225
G01 X4.7221 Y17.1206
G01 X4.6396 Y17.1081
G01 X4.5539 Y17.0868
G01 X4.5398 Y17.0824
G01 X4.4613 Y17.0541
G01 X4.3770 Y17.0142
G01 X4.2970 Y16.9662
G01 X4.2299 Y16.9167
G01 X4.2184 Y16.9075
G01 X4.1530 Y16.8480
G01 X3.2660 Y15.9610
G01 X3.2065 Y15.8957
G01 X3.1973 Y15.8842
G01 X3.1478 Y15.8170
G01 X3.1047 Y15.7456
G01 X3.0955 Y15.7283
G01 X3.0640 Y15.6617
G01 X3.0565 Y15.6436
G01 X3.0286 Y15.5649
G01 X3.0059 Y15.4744
G01 X2.9922 Y15.3822
G01 X2.9883 Y15.3067
G01 X2.9883 Y16.5240
G01 X3.9721 Y17.5078
G01 X10.0320 Y17.5078
G01 X10.1007 Y17.5111
G01 X10.1590 Y17.5196
G01 X10.1734 Y17.5222
G01 X10.2353 Y17.5379
G01 X10.2908 Y17.5575
G01 X10.3090 Y17.5651
G01 X10.3578 Y17.5882
G01 X10.3707 Y17.5953
G01 X10.4211 Y17.6258
G01 X10.4685 Y17.6607
G01 X10.4800 Y17.6699
G01 X10.5237 Y17.7094
G01 X10.6194 Y17.8051
G01 X12.0319 Y18.6310
G01 X12.1217 Y18.6737
G01 X12.2144 Y18.7290
G01 X12.2307 Y18.7399
G01 X12.3173 Y18.8044
G01 X12.4046 Y18.8835
G01 X12.4836 Y18.9708
G01 X12.5481 Y19.0573
G01 X12.5590 Y19.0736
G01 X12.6095 Y19.1578
G01 X12.6187 Y19.1751
G01 X12.6647 Y19.2729
G01 X12.7044 Y19.3837
G01 X12.7330 Y19.4979
G01 X12.7490 Y19.6047
G01 X12.7510 Y19.6242
G01 X12.7560 Y19.7320
G01 X12.7510 Y19.8399
G01 X12.7490 Y19.8594
G01 X12.7330 Y19.9661
G01 X12.7044 Y20.0804
G01 X12.6682 Y20.1821
G01 X12.6607 Y20.2002
G01 X12.6143 Y20.2977
G01 X12.5538 Y20.3987
G01 X12.4836 Y20.4933
G01 X12.4113 Y20.5734
G01 X12.3974 Y20.5873
G01 X12.3247 Y20.6532
G01 X12.3096 Y20.6657
G01 X12.2307 Y20.7241
G01 X12.2144 Y20.7350
G01 X12.1217 Y20.7903
G01 X12.0242 Y20.8367
G01 X12.0061 Y20.8442
G01 X11.9044 Y20.8804
G01 X11.7997 Y20.9068
G01 X11.7805 Y20.9106
G01 X11.6736 Y20.9262
G01 X11.5658 Y20.9318
G01 X10.2840 Y20.9784
G01 X7.3522 Y23.9102
G01 X7.3013 Y23.9563
G01 X7.2460 Y23.9973
G01 X7.1957 Y24.0278
G01 X7.1784 Y24.0370
G01 X7.1295 Y24.0600
G01 X7.1158 Y24.0655
G01 X7.0603 Y24.0851
G01 X7.0032 Y24.0997
G01 X6.9840 Y24.1035
G01 X6.9305 Y24.1114
G01 X6.9159 Y24.1126
G01 X6.8668 Y24.1150
G01 X6.6571 Y24.1153
G01 X6.1437 Y24.4005
G01 X6.1308 Y24.4100
G01 X6.1226 Y24.4155
G01 X6.0257 Y24.4733
G01 X5.9192 Y24.5237
G01 X5.8177 Y24.5603
G01 X5.8037 Y24.5647
G01 X5.6941 Y24.5920
G01 X5.5874 Y24.6080
G01 X5.5679 Y24.6100
G01 X5.4698 Y24.6148
G01 X5.4502 Y24.6148
G01 X5.3424 Y24.6092
G01 X5.2259 Y24.5920
G01 X5.1117 Y24.5634
G01 X5.0100 Y24.5272
G01 X4.9918 Y24.5197
G01 X4.9031 Y24.4777
G01 X4.8858 Y24.4685
G01 X4.7933 Y24.4128
G01 X4.6988 Y24.3426
G01 X4.6186 Y24.2703
G01 X4.6047 Y24.2564
G01 X4.5324 Y24.1763
G01 X4.4623 Y24.0817
G01 X4.4017 Y23.9807
G01 X4.3553 Y23.8832
G01 X4.3478 Y23.8651
G01 X4.3117 Y23.7634
G01 X4.2831 Y23.6491
G01 X4.2670 Y23.5424
G01 X4.2651 Y23.5229
G01 X4.2603 Y23.4248
G01 X4.2603 Y23.4052
G01 X4.2658 Y23.2974
G01 X4.2831 Y23.1809
G01 X4.3116 Y23.0671
G01 X4.3478 Y22.9650
G01 X4.3553 Y22.9468
G01 X4.3973 Y22.8581
G01 X4.4066 Y22.8408
G01 X4.4623 Y22.7483
G01 X4.5293 Y22.6576
G01 X4.5388 Y22.6463
G01 X4.6115 Y22.5665
G01 X4.6988 Y22.4874
G01 X4.7933 Y22.4173
G01 X4.8943 Y22.3567
G01 X5.0009 Y22.3063
G01 X5.1117 Y22.2667
G01 X5.2259 Y22.2381
G01 X5.3424 Y22.2208
G01 X5.4600 Y22.2150
G01 X5.5679 Y22.2201
G01 X5.5825 Y22.2213
G01 X5.6941 Y22.2381
G01 X5.7935 Y22.2627
G01 X6.8594 Y22.4223
G01 X9.9454 Y19.3364
G01 X9.6951 Y18.9083
G01 X3.6820 Y18.9083
G01 X3.6134 Y18.9049
G01 X3.5551 Y18.8965
G01 X3.5358 Y18.8927
G01 X3.4788 Y18.8781
G01 X3.4141 Y18.8550
G01 X3.3607 Y18.8300
G01 X3.3434 Y18.8208
G01 X3.2930 Y18.7903
G01 X3.2455 Y18.7554
G01 X3.2304 Y18.7429
G01 X3.1904 Y18.7066
G01 X1.7861 Y17.3021
G01 X1.7467 Y17.2583
G01 X1.7057 Y17.2030
G01 X1.6705 Y17.1441
G01 X1.6411 Y17.0820
G01 X1.6179 Y17.0173
G01 X1.6012 Y16.9506
G01 X1.5911 Y16.8827
G01 X1.5883 Y16.8291
G01 X1.5883 Y18.8070
G01 X2.9561 Y20.1748
G01 X3.4352 Y20.1748
G01 X5.0180 Y19.7600
G01 X5.1117 Y19.7267
G01 X5.2163 Y19.7002
G01 X5.2356 Y19.6964
G01 X5.3424 Y19.6808
G01 X5.4600 Y19.6750
G01 X5.5679 Y19.6801
G01 X5.5874 Y19.6820
G01 X5.6941 Y19.6981
G01 X5.7989 Y19.7241
G01 X5.8169 Y19.7295
G01 X5.9192 Y19.7664
G01 X6.0257 Y19.8167
G01 X6.1267 Y19.8773
G01 X6.2136 Y19.9414
G01 X6.2287 Y19.9538
G01 X6.3014 Y20.0197
G01 X6.3153 Y20.0336
G01 X6.3876 Y20.1138
G01 X6.4521 Y20.2003
G01 X6.4630 Y20.2166
G01 X6.5135 Y20.3008
G01 X6.5227 Y20.3181
G01 X6.5687 Y20.4159
G01 X6.6053 Y20.5174
G01 X6.6110 Y20.5361
G01 X6.6370 Y20.6409
G01 X6.6530 Y20.7477
G01 X6.6550 Y20.7672
G01 X6.6600 Y20.8750
G01 X6.6550 Y20.9829
G01 X6.6530 Y21.0024
G01 X6.6370 Y21.1091
G01 X6.6110 Y21.2139
G01 X6.6053 Y21.2327
G01 X6.5687 Y21.3342
G01 X6.5183 Y21.4407
G01 X6.4630 Y21.5334
G01 X6.4521 Y21.5497
G01 X6.3876 Y21.6363
G01 X6.3153 Y21.7164
G01 X6.3014 Y21.7303
G01 X6.2213 Y21.8026
G01 X6.1347 Y21.8671
G01 X6.1184 Y21.8780
G01 X6.0257 Y21.9333
G01 X5.9282 Y21.9797
G01 X5.9101 Y21.9872
G01 X5.8084 Y22.0234
G01 X5.7037 Y22.0498
G01 X5.6845 Y22.0536
G01 X5.5776 Y22.0692
G01 X5.4649 Y22.0750
G01 X5.4502 Y22.0748
G01 X5.3424 Y22.0692
G01 X5.2356 Y22.0536
G01 X5.2163 Y22.0498
G01 X5.1117 Y22.0234
G01 X5.0180 Y21.9901
G01 X3.4352 Y21.5753
G01 X2.6660 Y21.5753
G01 X2.6023 Y21.5723
G01 X2.5876 Y21.5707
G01 X2.5294 Y21.5618
G01 X2.4628 Y21.5451
G01 X2.3981 Y21.5220
G01 X2.3403 Y21.4949
G01 X2.3274 Y21.4878
G01 X2.2853 Y21.4625
G01 X2.2690 Y21.4516
G01 X2.2218 Y21.4163
G01 X2.1709 Y21.3702
G01 X0.3929 Y19.5922
G01 X0.3467 Y19.5413
G01 X0.3114 Y19.4941
G01 X0.3030 Y19.4818
G01 X0.2705 Y19.4271
G01 X0.2451 Y19.3740
G01 X0.2375 Y19.3558
G01 X0.2179 Y19.3003
G01 X0.2034 Y19.2432
G01 X0.1996 Y19.2240
G01 X0.1911 Y19.1657
G01 X0.1878 Y19.0970
G01 X0.1880 Y3.5932
G00 Z2.0000
G00 X0.2380 Y3.5957
G01 F60.00
G01 Z-0.3172
G01 F80.00
G01 X0.2409 Y3.5393
G01 X0.2503 Y3.4762
G01 X0.2658 Y3.4143
G01 X0.2846 Y3.3611
G01 X0.2903 Y3.3475
G01 X0.3112 Y3.3031
G01 X0.3182 Y3.2901
G01 X0.3474 Y3.2418
G01 X0.3808 Y3.1963
G01 X0.3877 Y3.1877
G01 X0.4282 Y3.1432
G01 X0.9362 Y2.6352
G01 X0.9807 Y2.5947
G01 X0.9893 Y2.5878
G01 X1.0348 Y2.5544
G01 X1.0895 Y2.5216
G01 X1.1472 Y2.4943
G01 X1.2003 Y2.4751
G01 X1.2144 Y2.4708
G01 X1.2692 Y2.4573
G01 X1.3250 Y2.4488
G01 X1.3396 Y2.4474
G01 X1.3960 Y2.4448
G01 X4.7116 Y2.4448
G01 X6.3025 Y2.0279
G01 X6.3962 Y1.9945
G01 X6.4985 Y1.9687
G01 X6.5129 Y1.9659
G01 X6.6173 Y1.9506
G01 X6.7300 Y1.9450
G01 X6.8427 Y1.9506
G01 X6.9471 Y1.9659
G01 X6.9616 Y1.9687
G01 X7.0636 Y1.9945
G01 X7.1575 Y2.0279
G01 X8.7484 Y2.4448
G01 X9.6547 Y2.4448
G01 X9.7148 Y2.4479
G01 X9.7706 Y2.4560
G01 X9.7851 Y2.4589
G01 X9.8327 Y2.4708
G01 X9.8468 Y2.4751
G01 X9.8999 Y2.4943
G01 X9.9510 Y2.5182
G01 X9.9640 Y2.5252
G01 X10.0061 Y2.5504
G01 X10.0153 Y2.5564
G01 X10.0635 Y2.5924
G01 X10.1055 Y2.6302
G01 X10.2194 Y2.7438
G01 X10.6281 Y2.8382
G01 X10.6491 Y2.8392
G01 X10.6564 Y2.8400
G01 X10.7608 Y2.8554
G01 X10.7716 Y2.8577
G01 X10.8736 Y2.8835
G01 X10.9732 Y2.9189
G01 X10.9868 Y2.9245
G01 X11.0821 Y2.9698
G01 X11.1789 Y3.0278
G01 X11.2696 Y3.0951
G01 X11.3532 Y3.1709
G01 X11.4290 Y3.2545
G01 X11.4920 Y3.3391
G01 X11.5002 Y3.3513
G01 X11.5506 Y3.4355
G01 X11.5575 Y3.4485
G01 X11.6025 Y3.5440
G01 X11.6405 Y3.6502
G01 X11.6679 Y3.7597
G01 X11.6836 Y3.8640
G01 X11.6850 Y3.8786
G01 X11.6900 Y3.9840
G01 X11.6850 Y4.0894
G01 X11.6836 Y4.1041
G01 X11.6692 Y4.2011
G01 X11.6663 Y4.2156
G01 X11.6405 Y4.3179
G01 X11.6025 Y4.4241
G01 X11.5542 Y4.5261
G01 X11.5002 Y4.6167
G01 X11.4920 Y4.6289
G01 X11.4290 Y4.7136
G01 X11.3583 Y4.7919
G01 X11.3479 Y4.8023
G01 X11.2752 Y4.8682
G01 X11.2638 Y4.8775
G01 X11.1789 Y4.9402
G01 X11.0821 Y4.9982
G01 X10.9801 Y5.0465
G01 X10.8808 Y5.0822
G01 X10.8668 Y5.0865
G01 X10.7644 Y5.1119
G01 X10.6601 Y5.1276
G01 X10.6454 Y5.1290
G01 X10.5437 Y5.1340
G01 X10.5327 Y5.1338
G01 X10.4273 Y5.1285
G01 X10.3229 Y5.1132
G01 X10.3085 Y5.1103
G01 X10.2133 Y5.0865
G01 X10.1992 Y5.0822
G01 X10.0999 Y5.0465
G01 X9.9979 Y4.9982
G01 X9.9011 Y4.9402
G01 X9.8105 Y4.8730
G01 X9.7269 Y4.7972
G01 X9.6534 Y4.7164
G01 X9.6465 Y4.7078
G01 X9.6161 Y4.6668
G01 X8.8388 Y3.7453
G01 X8.7484 Y3.7453
G01 X7.1575 Y4.1622
G01 X7.0639 Y4.1955
G01 X6.9580 Y4.2222
G01 X6.9471 Y4.2242
G01 X6.8427 Y4.2395
G01 X6.7337 Y4.2450
G01 X6.7227 Y4.2448
G01 X6.6173 Y4.2395
G01 X6.5129 Y4.2242
G01 X6.4985 Y4.2213
G01 X6.3962 Y4.1955
G01 X6.3026 Y4.1622
G01 X4.7116 Y3.7453
G01 X1.6654 Y3.7453
G01 X1.5383 Y3.8724
G01 X1.5383 Y18.8277
G01 X2.9354 Y20.2248
G01 X3.4416 Y20.2248
G01 X5.0325 Y19.8079
G01 X5.1192 Y19.7769
G01 X5.1333 Y19.7726
G01 X5.2357 Y19.7471
G01 X5.3473 Y19.7306
G01 X5.4600 Y19.7250
G01 X5.5727 Y19.7306
G01 X5.6844 Y19.7471
G01 X5.7868 Y19.7726
G01 X5.8003 Y19.7766
G01 X5.8932 Y19.8099
G01 X5.9068 Y19.8155
G01 X6.0021 Y19.8608
G01 X6.0927 Y19.9149
G01 X6.1049 Y19.9231
G01 X6.1896 Y19.9861
G01 X6.2679 Y20.0568
G01 X6.2783 Y20.0672
G01 X6.3490 Y20.1455
G01 X6.4162 Y20.2361
G01 X6.4706 Y20.3265
G01 X6.4775 Y20.3395
G01 X6.5225 Y20.4350
G01 X6.5605 Y20.5412
G01 X6.5863 Y20.6435
G01 X6.5892 Y20.6579
G01 X6.6045 Y20.7623
G01 X6.6098 Y20.8677
G01 X6.6098 Y20.8824
G01 X6.6045 Y20.9877
G01 X6.5892 Y21.0921
G01 X6.5863 Y21.1066
G01 X6.5605 Y21.2089
G01 X6.5251 Y21.3082
G01 X6.5195 Y21.3218
G01 X6.4742 Y21.4171
G01 X6.4202 Y21.5077
G01 X6.4120 Y21.5199
G01 X6.3535 Y21.5988
G01 X6.3442 Y21.6102
G01 X6.2732 Y21.6882
G01 X6.1952 Y21.7592
G01 X6.1838 Y21.7685
G01 X6.0989 Y21.8312
G01 X6.0021 Y21.8892
G01 X5.9068 Y21.9345
G01 X5.8932 Y21.9401
G01 X5.7939 Y21.9755
G01 X5.6844 Y22.0029
G01 X5.5801 Y22.0186
G01 X5.5654 Y22.0200
G01 X5.4600 Y22.0250
G01 X5.3546 Y22.0200
G01 X5.3400 Y22.0186
G01 X5.2429 Y22.0042
G01 X5.2285 Y22.0013
G01 X5.1262 Y21.9755
G01 X5.0326 Y21.9422
G01 X3.4416 Y21.5253
G01 X2.6660 Y21.5253
G01 X2.6060 Y21.5225
G01 X2.5950 Y21.5212
G01 X2.5392 Y21.5128
G01 X2.4773 Y21.4973
G01 X2.4172 Y21.4758
G01 X2.3661 Y21.4518
G01 X2.3531 Y21.4449
G01 X2.3110 Y21.4196
G01 X2.2987 Y21.4114
G01 X2.2535 Y21.3777
G01 X2.2062 Y21.3348
G01 X0.4257 Y19.5542
G01 X0.3902 Y19.5151
G01 X0.3808 Y19.5037
G01 X0.3473 Y19.4582
G01 X0.3182 Y19.4100
G01 X0.3112 Y19.3970
G01 X0.2873 Y19.3459
G01 X0.2658 Y19.2858
G01 X0.2519 Y19.2311
G01 X0.2490 Y19.2166
G01 X0.2409 Y19.1608
G01 X0.2378 Y19.0970
G01 X0.2380 Y3.5957
G00 Z2.0000
G00 X0.2879 Y3.5981
G01 F60.00
G01 Z-0.3172
G01 F80.00
G01 X0.2907 Y3.5442
G01 X0.2993 Y3.4859
G01 X0.3136 Y3.4288
G01 X0.3317 Y3.3779
G01 X0.3355 Y3.3688
G01 X0.3587 Y3.3201
G01 X0.3863 Y3.2737
G01 X0.3918 Y3.2655
G01 X0.4210 Y3.2261
G01 X0.4272 Y3.2185
G01 X0.4636 Y3.1786
G01 X0.9716 Y2.6706
G01 X1.0152 Y2.6310
G01 X1.0625 Y2.5959
G01 X1.1088 Y2.5681
G01 X1.1175 Y2.5634
G01 X1.1618 Y2.5425
G01 X1.1709 Y2.5387
G01 X1.2218 Y2.5206
G01 X1.2741 Y2.5074
G01 X1.2838 Y2.5055
G01 X1.3372 Y2.4977
G01 X1.3960 Y2.4948
G01 X4.7181 Y2.4948
G01 X6.3166 Y2.0759
G01 X6.4107 Y2.0424
G01 X6.5106 Y2.0172
G01 X6.5203 Y2.0153
G01 X6.6222 Y2.0003
G01 X6.7300 Y1.9950
G01 X6.8378 Y2.0003
G01 X6.9398 Y2.0153
G01 X6.9494 Y2.0172
G01 X7.0491 Y2.0423
G01 X7.1435 Y2.0759
G01 X8.7420 Y2.4948
G01 X9.6535 Y2.4948
G01 X9.7099 Y2.4977
G01 X9.7633 Y2.5055
G01 X9.7729 Y2.5074
G01 X9.8276 Y2.5214
G01 X9.8807 Y2.5405
G01 X9.9296 Y2.5634
G01 X9.9383 Y2.5681
G01 X9.9804 Y2.5933
G01 X9.9885 Y2.5988
G01 X10.0318 Y2.6310
G01 X10.0719 Y2.6672
G01 X10.1942 Y2.7893
G01 X10.6212 Y2.8879
G01 X10.6503 Y2.8896
G01 X10.7522 Y2.9047
G01 X10.7594 Y2.9062
G01 X10.8591 Y2.9313
G01 X10.9564 Y2.9660
G01 X10.9655 Y2.9697
G01 X11.0586 Y3.0139
G01 X11.1491 Y3.0681
G01 X11.1552 Y3.0722
G01 X11.2379 Y3.1337
G01 X11.3143 Y3.2028
G01 X11.3212 Y3.2098
G01 X11.3871 Y3.2825
G01 X11.3934 Y3.2901
G01 X11.4546 Y3.3729
G01 X11.5101 Y3.4655
G01 X11.5563 Y3.5631
G01 X11.5927 Y3.6647
G01 X11.6189 Y3.7694
G01 X11.6341 Y3.8713
G01 X11.6351 Y3.8811
G01 X11.6400 Y3.9840
G01 X11.6351 Y4.0869
G01 X11.6341 Y4.0967
G01 X11.6197 Y4.1938
G01 X11.6178 Y4.2034
G01 X11.5927 Y4.3033
G01 X11.5563 Y4.4050
G01 X11.5101 Y4.5026
G01 X11.4573 Y4.5910
G01 X11.4518 Y4.5992
G01 X11.3903 Y4.6819
G01 X11.3212 Y4.7583
G01 X11.3143 Y4.7652
G01 X11.2416 Y4.8311
G01 X11.2340 Y4.8374
G01 X11.1512 Y4.8986
G01 X11.0586 Y4.9541
G01 X10.9610 Y5.0003
G01 X10.8640 Y5.0351
G01 X10.8546 Y5.0380
G01 X10.7546 Y5.0629
G01 X10.6527 Y5.0781
G01 X10.6429 Y5.0791
G01 X10.5425 Y5.0840
G01 X10.5351 Y5.0839
G01 X10.4322 Y5.0787
G01 X10.3303 Y5.0637
G01 X10.3206 Y5.0618
G01 X10.2254 Y5.0380
G01 X10.2161 Y5.0351
G01 X10.1191 Y5.0003
G01 X10.0215 Y4.9541
G01 X9.9289 Y4.8986
G01 X9.8422 Y4.8343
G01 X9.7622 Y4.7618
G01 X9.6913 Y4.6837
G01 X9.6554 Y4.6357
G01 X8.8620 Y3.6953
G01 X8.7420 Y3.6953
G01 X7.1435 Y4.1141
G01 X7.0493 Y4.1477
G01 X6.9470 Y4.1734
G01 X6.9398 Y4.1747
G01 X6.8378 Y4.1897
G01 X6.7325 Y4.1950
G01 X6.7251 Y4.1949
G01 X6.6222 Y4.1897
G01 X6.5203 Y4.1747
G01 X6.5106 Y4.1728
G01 X6.4107 Y4.1477
G01 X6.3166 Y4.1141
G01 X4.7181 Y3.6953
G01 X1.6447 Y3.6953
G01 X1.4883 Y3.8517
G01 X1.4883 Y18.8484
G01 X2.9147 Y20.2748
G01 X3.4481 Y20.2748
G01 X5.0466 Y19.8559
G01 X5.1361 Y19.8239
G01 X5.1454 Y19.8211
G01 X5.2454 Y19.7962
G01 X5.3522 Y19.7803
G01 X5.4600 Y19.7750
G01 X5.5678 Y19.7803
G01 X5.6746 Y19.7962
G01 X5.7746 Y19.8211
G01 X5.7836 Y19.8238
G01 X5.8764 Y19.8570
G01 X5.8855 Y19.8607
G01 X5.9786 Y19.9049
G01 X6.0670 Y19.9578
G01 X6.0732 Y19.9618
G01 X6.1579 Y20.0247
G01 X6.2343 Y20.0938
G01 X6.2412 Y20.1008
G01 X6.3103 Y20.1772
G01 X6.3746 Y20.2639
G01 X6.4277 Y20.3522
G01 X6.4323 Y20.3609
G01 X6.4763 Y20.4541
G01 X6.5127 Y20.5557
G01 X6.5378 Y20.6556
G01 X6.5397 Y20.6653
G01 X6.5547 Y20.7672
G01 X6.5599 Y20.8701
G01 X6.5599 Y20.8799
G01 X6.5547 Y20.9828
G01 X6.5397 Y21.0848
G01 X6.5378 Y21.0944
G01 X6.5127 Y21.1943
G01 X6.4781 Y21.2914
G01 X6.4743 Y21.3005
G01 X6.4301 Y21.3936
G01 X6.3773 Y21.4820
G01 X6.3718 Y21.4902
G01 X6.3134 Y21.5690
G01 X6.3071 Y21.5766
G01 X6.2378 Y21.6528
G01 X6.1616 Y21.7221
G01 X6.1540 Y21.7284
G01 X6.0712 Y21.7896
G01 X5.9786 Y21.8451
G01 X5.8855 Y21.8893
G01 X5.8764 Y21.8931
G01 X5.7793 Y21.9277
G01 X5.6746 Y21.9539
G01 X5.5727 Y21.9691
G01 X5.5629 Y21.9701
G01 X5.4600 Y21.9750
G01 X5.3571 Y21.9701
G01 X5.3473 Y21.9691
G01 X5.2503 Y21.9547
G01 X5.2406 Y21.9528
G01 X5.1407 Y21.9277
G01 X5.0466 Y21.8941
G01 X3.4481 Y21.4753
G01 X2.6660 Y21.4753
G01 X2.6096 Y21.4726
G01 X2.6023 Y21.4718
G01 X2.5489 Y21.4637
G01 X2.4918 Y21.4494
G01 X2.4363 Y21.4296
G01 X2.3875 Y21.4066
G01 X2.3788 Y21.4020
G01 X2.3367 Y21.3767
G01 X2.3285 Y21.3713
G01 X2.2852 Y21.3390
G01 X2.2416 Y21.2995
G01 X0.4619 Y19.5197
G01 X0.4272 Y19.4815
G01 X0.4210 Y19.4740
G01 X0.3889 Y19.4305
G01 X0.3611 Y19.3843
G01 X0.3564 Y19.3756
G01 X0.3335 Y19.3267
G01 X0.3136 Y19.2713
G01 X0.3004 Y19.2189
G01 X0.2985 Y19.2093
G01 X0.2907 Y19.1559
G01 X0.2878 Y19.0970
G01 X0.2879 Y3.5981
G00 Z2.0000
G00 X0.3378 Y3.6006
G01 F60.00
G01 Z-0.3172
G01 F80.00
G01 X0.3404 Y3.5491
G01 X0.3483 Y3.4957
G01 X0.3615 Y3.4433
G01 X0.3797 Y3.3925
G01 X0.4027 Y3.3436
G01 X0.4305 Y3.2973
G01 X0.4627 Y3.2539
G01 X0.4972 Y3.2157
G01 X1.0069 Y2.7059
G01 X1.0469 Y2.6697
G01 X1.0903 Y2.6375
G01 X1.1388 Y2.6086
G01 X1.1877 Y2.5858
G01 X1.2363 Y2.5685
G01 X1.2863 Y2.5559
G01 X1.3421 Y2.5474
G01 X1.3960 Y2.5448
G01 X4.7246 Y2.5448
G01 X6.3248 Y2.1254
G01 X6.3298 Y2.1243
G01 X6.4252 Y2.0902
G01 X6.5228 Y2.0657
G01 X6.6271 Y2.0501
G01 X6.7300 Y2.0450
G01 X6.8329 Y2.0501
G01 X6.9373 Y2.0657
G01 X7.0347 Y2.0902
G01 X7.1302 Y2.1243
G01 X7.1352 Y2.1254
G01 X8.7354 Y2.5448
G01 X9.6523 Y2.5448
G01 X9.7050 Y2.5474
G01 X9.7560 Y2.5549
G01 X9.8119 Y2.5688
G01 X9.8616 Y2.5867
G01 X9.9104 Y2.6097
G01 X9.9567 Y2.6375
G01 X9.9982 Y2.6682
G01 X10.0392 Y2.7051
G01 X10.1690 Y2.8348
G01 X10.6143 Y2.9376
G01 X10.6442 Y2.9392
G01 X10.7437 Y2.9540
G01 X10.8447 Y2.9792
G01 X10.9441 Y3.0149
G01 X11.0350 Y3.0580
G01 X11.1223 Y3.1103
G01 X11.2061 Y3.1724
G01 X11.2807 Y3.2399
G01 X11.3532 Y3.3198
G01 X11.4131 Y3.4007
G01 X11.4660 Y3.4891
G01 X11.5101 Y3.5822
G01 X11.5448 Y3.6792
G01 X11.5698 Y3.7792
G01 X11.5851 Y3.8836
G01 X11.5900 Y3.9840
G01 X11.5851 Y4.0845
G01 X11.5703 Y4.1865
G01 X11.5448 Y4.2888
G01 X11.5101 Y4.3858
G01 X11.4660 Y4.4790
G01 X11.4117 Y4.5694
G01 X11.3517 Y4.6501
G01 X11.2842 Y4.7247
G01 X11.2080 Y4.7941
G01 X11.1234 Y4.8571
G01 X11.0350 Y4.9100
G01 X10.9418 Y4.9541
G01 X10.8425 Y4.9895
G01 X10.7449 Y5.0138
G01 X10.6454 Y5.0287
G01 X10.5413 Y5.0340
G01 X10.4371 Y5.0290
G01 X10.3376 Y5.0143
G01 X10.2329 Y4.9880
G01 X10.1382 Y4.9541
G01 X10.0451 Y4.9100
G01 X9.9567 Y4.8571
G01 X9.8739 Y4.7957
G01 X9.7976 Y4.7265
